!!!COM: Mozart, Wolfgang Amadeus
!!!OPR: Symphony in D Major
!!!OTL: Andante
!!!OMV: 2
!!!SCT: K 504
!!!SCA: Chronologisch-thematisches Verzeichnis sämtlicher Tonwerke Wolfgang Amade Mozarts (L. von Köchel; 1862, 2/1905, 3/1937, 1947)
!!!YOR: Breitkopf & Härtel Edition
!!!EED: Frances Bennion
!!!ENC: Frances Bennion
!!!CDT: 1756/1/27/-1791/12/5/
!!!OCY: Österreich
!!!YEC: Copyright (c) 1994, 2000 Center for Computer Assisted Research in the Humanities
!!!YEM: Rights to all derivative editions reserved.
!!!YEM: Refer to licensing agreement for further details.
!!!YEN: United States of America
**kern	**dynam	**kern	**dynam	**kern	**dynam	**kern	**dynam	**kern	**dynam	**kern	**dynam	**kern	**dynam	**kern	**dynam
*I:Flauto 1, 2	*I:Flauto 1, 2	*I:Oboe 1, 2	*I:Oboe 1, 2	*I:Fagotto 1, 2	*I:Fagotto 1, 2	*I:Corno 1, 2	*I:Corno 1, 2	*I:Violino I	*I:Violino I	*I:Violino II	*I:Violino II	*I:Viola	*I:Viola	*I:Violoncello e Basso	*I:Violoncello e Basso
*>[A,A,B]	*	*>[A,A,B]	*	*>[A,A,B]	*	*>[A,A,B]	*	*>[A,A,B]	*	*>[A,A,B]	*	*>[A,A,B]	*	*>[A,A,B]	*
*>A	*	*>A	*	*>A	*	*>A	*	*>A	*	*>A	*	*>A	*	*>A	*
*clefG2	*	*clefG2	*	*clefF4	*	*clefG2	*	*clefG2	*	*clefG2	*	*clefC3	*	*clefF4	*
*k[f#]	*	*k[f#]	*	*k[f#]	*	*k[]	*	*k[f#]	*	*k[f#]	*	*k[f#]	*	*k[f#]	*
*G:	*	*G:	*	*G:	*	*G:	*	*G:	*	*G:	*	*G:	*	*G:	*
*M6/8	*	*M6/8	*	*M6/8	*	*M6/8	*	*M6/8	*	*M6/8	*	*M6/8	*	*M6/8	*
! Andante.	!	!	!	!	!	!	!	!	!	!	!	!	!	!	!
*tb32	*	*tb32	*	*tb32	*	*tb32	*	*tb32	*	*tb32	*	*tb32	*	*tb32	*
=1-	=1-	=1-	=1-	=1-	=1-	=1-	=1-	=1-	=1-	=1-	=1-	=1-	=1-	=1-	=1-
*^	*	*^	*	*^	*	*^	*	*	*	*	*	*	*	*	*
2.r	2.r	.	2.r	2.r	.	2.r	2.r	.	2.r	2.r	.	(4g/	p	(4B/	p	[2.G/	p	[2.G\	p
.	.	.	.	.	.	.	.	.	.	.	.	8b/	.	8d/	.	.	.	.	.
.	.	.	.	.	.	.	.	.	.	.	.	4a/	.	4c/	.	.	.	.	.
.	.	.	.	.	.	.	.	.	.	.	.	8g/)	.	8B/)	.	.	.	.	.
=2	=2	=2	=2	=2	=2	=2	=2	=2	=2	=2	=2	=2	=2	=2	=2	=2	=2	=2	=2
2.r	2.r	.	2.r	2.r	.	2.r	2.r	.	2.r	2.r	.	([4.cc\	.	(4e/	.	2.G/]	.	2.G\_	.
.	.	.	.	.	.	.	.	.	.	.	.	.	.	8g/	.	.	.	.	.
.	.	.	.	.	.	.	.	.	.	.	.	4cc\]	.	4d/	.	.	.	.	.
.	.	.	.	.	.	.	.	.	.	.	.	([8b\	.	8g/)	.	.	.	.	.
=3	=3	=3	=3	=3	=3	=3	=3	=3	=3	=3	=3	=3	=3	=3	=3	=3	=3	=3	=3
2.r	2.r	.	2.r	2.r	.	2.r	2.r	.	2.r	2.r	.	8b/L]	.	(2.c/	.	(4.E/	.	2.G\_	.
.	.	.	.	.	.	.	.	.	.	.	.	8g#/	.	.	.	.	.	.	.
.	.	.	.	.	.	.	.	.	.	.	.	8a/J)	.	.	.	.	.	.	.
.	.	.	.	.	.	.	.	.	.	.	.	(16c#/LL	.	.	.	8F#/L	.	.	.
.	.	.	.	.	.	.	.	.	.	.	.	16d/	.	.	.	.	.	.	.
.	.	.	.	.	.	.	.	.	.	.	.	16d#/	.	.	.	8G/	.	.	.
.	.	.	.	.	.	.	.	.	.	.	.	16e/	.	.	.	.	.	.	.
.	.	.	.	.	.	.	.	.	.	.	.	16fn/	.	.	.	8A/J)	.	.	.
.	.	.	.	.	.	.	.	.	.	.	.	16f#/JJ	.	.	.	.	.	.	.
=4	=4	=4	=4	=4	=4	=4	=4	=4	=4	=4	=4	=4	=4	=4	=4	=4	=4	=4	=4
2.r	2.r	.	2.r	2.r	.	2.r	2.r	.	2.r	2.r	.	16gn/LL	.	8B/)	.	8D/	.	8G\]	.
.	.	.	.	.	.	.	.	.	.	.	.	16g#/	.	.	.	.	.	.	.
.	.	.	.	.	.	.	.	.	.	.	.	16a/	.	8r	.	8r	.	8r	.
.	.	.	.	.	.	.	.	.	.	.	.	16a#/	.	.	.	.	.	.	.
.	.	.	.	.	.	.	.	.	.	.	.	16b/	.	8r	.	8r	.	8r	.
.	.	.	.	.	.	.	.	.	.	.	.	16ccn/JJ)	.	.	.	.	.	.	.
.	.	.	.	.	.	.	.	.	.	.	.	(16cc#\LL	.	4r	.	4r	.	4r	.
.	.	.	.	.	.	.	.	.	.	.	.	16ddn\	.	.	.	.	.	.	.
.	.	.	.	.	.	.	.	.	.	.	.	16ee\	.	.	.	.	.	.	.
.	.	.	.	.	.	.	.	.	.	.	.	16dd\	.	.	.	.	.	.	.
.	.	.	.	.	.	.	.	.	.	.	.	16ccn\	.	8r	.	8r	.	8r	.
.	.	.	.	.	.	.	.	.	.	.	.	16an\JJ)	.	.	.	.	.	.	.
=5	=5	=5	=5	=5	=5	=5	=5	=5	=5	=5	=5	=5	=5	=5	=5	=5	=5	=5	=5
(4gg\	4b\	p	2.r	2.r	.	(4G/	2.r	p	[2.cc/	[2.c/	p	(4g/	.	(4B/	.	[2.G/	.	[2.GG/	.
8bb\	8dd\	.	.	.	.	8B/	.	.	.	.	.	8b/	.	8d/	.	.	.	.	.
4aa\	4cc\	.	.	.	.	4A/	.	.	.	.	.	4a/	.	4c/	.	.	.	.	.
8gg\)	8b\	.	.	.	.	8G/)	.	.	.	.	.	8g/)	.	8B/)	.	.	.	.	.
=6	=6	=6	=6	=6	=6	=6	=6	=6	=6	=6	=6	=6	=6	=6	=6	=6	=6	=6	=6
(8ddd/L	2.gg\	.	(4.ee/	2.r	p	(8d/L	2.r	.	2.cc/_	2.c/_	.	(8dd\L	.	(4e/	.	2.G/]	.	2.GG/_	.
8ccc#/	.	.	.	.	.	8c#/	.	.	.	.	.	8cc#\	.	.	.	.	.	.	.
[8cccn/J	.	.	.	.	.	[8cn/J	.	.	.	.	.	[8ccn\J	.	8g/	.	.	.	.	.
8ccc/L]	.	.	4.dd/)	.	.	8c/L]	.	.	.	.	.	8cc\L]	.	4d/	.	.	.	.	.
8aa#/	.	.	.	.	.	8A#/	.	.	.	.	.	8a#\	.	.	.	.	.	.	.
[8bb/J)	.	.	.	.	.	[8B/J)	.	.	.	.	.	[8b\J)	.	8g/)	.	.	.	.	.
=7	=7	=7	=7	=7	=7	=7	=7	=7	=7	=7	=7	=7	=7	=7	=7	=7	=7	=7	=7
(8bb/L]	4.ff#\	.	(2.cc/	2.r	.	(8B/L]	2.r	.	2.cc/_	2.c/_	.	(8b/L]	.	2.d/ 2.c/	.	[4.F#/	.	2.GG/]	.
8gg#/	.	.	.	.	.	8G#/	.	.	.	.	.	8g#/	.	.	.	.	.	.	.
8aan/J)	.	.	.	.	.	8An/J)	.	.	.	.	.	8a/J)	.	.	.	.	.	.	.
(16cc#/LL	[4.dd\	.	.	.	.	(16C#/LL	.	.	.	.	.	(16c#/LL	.	.	.	(8F#/L]	.	.	.
16dd/	.	.	.	.	.	16D/	.	.	.	.	.	16d/	.	.	.	.	.	.	.
16dd#/	.	.	.	.	.	16D#/	.	.	.	.	.	16d#/	.	.	.	8G/	.	.	.
16ee/	.	.	.	.	.	16E/	.	.	.	.	.	16e/	.	.	.	.	.	.	.
16ffn/	.	.	.	.	.	16Fn/	.	.	.	.	.	16fn/	.	.	.	8A/J)	.	.	.
16ff#/JJ	.	.	.	.	.	16F#/JJ	.	.	.	.	.	16f#/JJ	.	.	.	.	.	.	.
=8	=8	=8	=8	=8	=8	=8	=8	=8	=8	=8	=8	=8	=8	=8	=8	=8	=8	=8	=8
8ggn/)	8dd\]	.	8b/)	2.r	.	8Gn/)	2.r	.	8cc/]	8c/]	.	8gn/)	.	8d/ 8B/	.	8G/	.	8GG/	.
8r	8ryy	.	8r	.	.	8r	.	.	8r	8r	.	8r	.	8r	.	8r	.	8r	.
8r	8ryy	.	8r	.	.	8r	.	.	8r	8r	.	8g'/	.	8g'/	.	8G'/	.	8G'\	.
4r	4ryy	.	4r	.	.	4r	.	.	4r	4r	.	8f#'/L	.	8f#'/L	.	8F#'/L	.	8F#'\L	.
.	.	.	.	.	.	.	.	.	.	.	.	8g'/	.	8g'/	.	8G'/	.	8G'\	.
8r	8ryy	.	8r	.	.	8r	.	.	8r	8r	.	8a'/J	.	8a'/J	.	8A'/J	.	8A'\J	.
=9	=9	=9	=9	=9	=9	=9	=9	=9	=9	=9	=9	=9	=9	=9	=9	=9	=9	=9	=9
2.r	2.r	.	2.r	2.r	.	2.r	2.r	.	2.r	2.r	.	8d/	.	8d/	.	8D/	.	8D\	.
.	.	.	.	.	.	.	.	.	.	.	.	8r	.	8r	.	8r	.	8r	.
.	.	.	.	.	.	.	.	.	.	.	.	8a'/	.	8a'/	.	8A'/	.	8A'\	.
.	.	.	.	.	.	.	.	.	.	.	.	8g'/L	.	8g'/L	.	8G'/L	.	8G'\L	.
.	.	.	.	.	.	.	.	.	.	.	.	8a'/	.	8a'/	.	8A'/	.	8A'\	.
.	.	.	.	.	.	.	.	.	.	.	.	8b'/J	.	8b'/J	.	8B'/J	.	8B'\J	.
=10	=10	=10	=10	=10	=10	=10	=10	=10	=10	=10	=10	=10	=10	=10	=10	=10	=10	=10	=10
2.r	2.r	.	2.r	2.r	.	2.r	2.r	.	[2.g/	[2.G/	.	8d/	.	16d/LL	.	16D/LL	.	8D\	.
.	.	.	.	.	.	.	.	.	.	.	.	.	.	16B/	.	16d/	.	.	.
.	.	.	.	.	.	.	.	.	.	.	.	8r	.	16B/	.	16d/	.	8r	.
.	.	.	.	.	.	.	.	.	.	.	.	.	.	16B/	.	16d/	.	.	.
.	.	.	.	.	.	.	.	.	.	.	.	8gg'\	.	16B/	.	16d/	.	8r	.
.	.	.	.	.	.	.	.	.	.	.	.	.	.	16B/JJ	.	16d/JJ	.	.	.
.	.	.	.	.	.	.	.	.	.	.	.	8ff#'\L	.	16c/LL	.	16d\LL	.	4r	.
.	.	.	.	.	.	.	.	.	.	.	.	.	.	16c/	.	16d\	.	.	.
.	.	.	.	.	.	.	.	.	.	.	.	8gg'\	.	16c/	.	16d\	.	.	.
.	.	.	.	.	.	.	.	.	.	.	.	.	.	16c/	.	16d\	.	.	.
.	.	.	.	.	.	.	.	.	.	.	.	8aa'\J	.	16c/	.	16d\	.	8G'\	.
.	.	.	.	.	.	.	.	.	.	.	.	.	.	16c/JJ	.	16d\JJ	.	.	.
=11	=11	=11	=11	=11	=11	=11	=11	=11	=11	=11	=11	=11	=11	=11	=11	=11	=11	=11	=11
2.r	2.r	.	2.r	2.r	.	2.r	2.r	.	2.g/_	2.G/_	.	8dd\	.	16c/LL	.	16d\LL	.	8F#'\L	.
.	.	.	.	.	.	.	.	.	.	.	.	.	.	16c/	.	16d\	.	.	.
.	.	.	.	.	.	.	.	.	.	.	.	8r	.	16c/	.	16d\	.	8G'\	.
.	.	.	.	.	.	.	.	.	.	.	.	.	.	16c/	.	16d\	.	.	.
.	.	.	.	.	.	.	.	.	.	.	.	8aa'\	.	16c/	.	16d\	.	8A'\J	.
.	.	.	.	.	.	.	.	.	.	.	.	.	.	16c/JJ	.	16d\	.	.	.
.	.	.	.	.	.	.	.	.	.	.	.	8gg'\L	.	16B/LL	.	16d\	.	8D\	.
.	.	.	.	.	.	.	.	.	.	.	.	.	.	16B/	.	16d\	.	.	.
.	.	.	.	.	.	.	.	.	.	.	.	8aa'\	.	16B/	.	16d\	.	8r	.
.	.	.	.	.	.	.	.	.	.	.	.	.	.	16B/	.	16d\	.	.	.
.	.	.	.	.	.	.	.	.	.	.	.	8bb'\J	.	16B/	.	16d\	.	8A'\	.
.	.	.	.	.	.	.	.	.	.	.	.	.	.	16B/JJ	.	16d\JJ	.	.	.
=12	=12	=12	=12	=12	=12	=12	=12	=12	=12	=12	=12	=12	=12	=12	=12	=12	=12	=12	=12
2.r	2.r	.	2.r	2.r	.	2.r	2.r	.	2.g/_	2.G/_	.	8dd\	.	(16B/LL	.	16d\LL	.	8G'\L	.
.	.	.	.	.	.	.	.	.	.	.	.	.	.	16g/)	.	16d\	.	.	.
.	.	.	.	.	.	.	.	.	.	.	.	8r	.	16g/	.	16d\	.	8A'\	.
.	.	.	.	.	.	.	.	.	.	.	.	.	.	16g/	.	16d\	.	.	.
.	.	.	.	.	.	.	.	.	.	.	.	8bb'\	.	16g/	.	16d\	.	8B'\J	.
.	.	.	.	.	.	.	.	.	.	.	.	.	.	16g/JJ	.	16d\JJ	.	.	.
.	.	.	.	.	.	.	.	.	.	.	.	8aa'\L	.	16g/LL	.	16c\LL	.	8D\	.
.	.	.	.	.	.	.	.	.	.	.	.	.	.	16g/	.	16c\	.	.	.
.	.	.	.	.	.	.	.	.	.	.	.	8bb'\	.	16g/	.	16c\	.	8r	.
.	.	.	.	.	.	.	.	.	.	.	.	.	.	16g/	.	16c\	.	.	.
.	.	.	.	.	.	.	.	.	.	.	.	8ccc'\J	.	16g/	.	16c\	.	8B'\	.
.	.	.	.	.	.	.	.	.	.	.	.	.	.	16g/JJ	.	16c\JJ	.	.	.
=13	=13	=13	=13	=13	=13	=13	=13	=13	=13	=13	=13	=13	=13	=13	=13	=13	=13	=13	=13
2.r	2.r	.	2.r	2.r	.	2.r	2.r	.	2.g/_	2.G/_	.	8dd\	.	(16f#/LL	.	16c\LL	.	8A'\L	.
.	.	.	.	.	.	.	.	.	.	.	.	.	.	16a/)	.	16c\	.	.	.
.	.	.	.	.	.	.	.	.	.	.	.	8r	.	16a/	.	16c\	.	8B'\	.
.	.	.	.	.	.	.	.	.	.	.	.	.	.	16a/	.	16c\	.	.	.
.	.	.	.	.	.	.	.	.	.	.	.	8ccc'\	.	16a/	.	16c\	.	8c'\J	.
.	.	.	.	.	.	.	.	.	.	.	.	.	.	16a/JJ	.	16c\JJ	.	.	.
.	.	.	.	.	.	.	.	.	.	.	.	8bb'\L	.	16a/LL	.	16d\LL	.	8D\	.
.	.	.	.	.	.	.	.	.	.	.	.	.	.	16a/	.	16d\	.	.	.
.	.	.	.	.	.	.	.	.	.	.	.	8ccc'\	.	16a/	.	16d\	.	8r	.
.	.	.	.	.	.	.	.	.	.	.	.	.	.	16a/	.	16d\	.	.	.
.	.	.	.	.	.	.	.	.	.	.	.	8ddd'\J	.	16a/	.	16d\	.	8c'\	.
.	.	.	.	.	.	.	.	.	.	.	.	.	.	16a/JJ	.	16d\JJ	.	.	.
=14	=14	=14	=14	=14	=14	=14	=14	=14	=14	=14	=14	=14	=14	=14	=14	=14	=14	=14	=14
2.r	2.r	.	2.r	2.r	.	2.r	2.r	.	8g/]	8G/]	.	8dd\	.	(16g/LL	.	16d\LL	.	8B'\L	.
.	.	.	.	.	.	.	.	.	.	.	.	.	.	16b/)	.	16d\	.	.	.
.	.	.	.	.	.	.	.	.	8r	8r	.	8r	.	16b/	.	16d\	.	8c'\	.
.	.	.	.	.	.	.	.	.	.	.	.	.	.	16b/	.	16d\	.	.	.
.	.	.	.	.	.	.	.	.	8r	8r	.	([8ddd\	.	16b/	.	16d\	.	8d'\J	.
.	.	.	.	.	.	.	.	.	.	.	.	.	.	16b/JJ	.	16d\JJ	.	.	.
.	.	.	.	.	.	.	.	.	4r	4r	.	8ddd\L]	.	(8b\L	.	(8g\L	.	4e\	.
.	.	.	.	.	.	.	.	.	.	.	.	8gg\)	.	8dd\	.	8b\	.	.	.
.	.	.	.	.	.	.	.	.	8r	8r	.	([8ccc\J	.	8cc\J	.	8a\J	.	(8A\	.
=15	=15	=15	=15	=15	=15	=15	=15	=15	=15	=15	=15	=15	=15	=15	=15	=15	=15	=15	=15
2.r	2.r	.	2.r	2.r	.	2.r	2.r	.	2.r	2.r	.	8ccc\L]	.	8a\L	.	8f#\L	.	4d\	.
.	.	.	.	.	.	.	.	.	.	.	.	8ff#\)	.	8cc\	.	8a\	.	.	.
.	.	.	.	.	.	.	.	.	.	.	.	(8bb\J	.	8b\J)	.	8g\J)	.	8G\	.
.	.	.	.	.	.	.	.	.	.	.	.	8aa\L	.	(8cc\L	.	(8e\L	.	8c\L	.
.	.	.	.	.	.	.	.	.	.	.	.	8ccc\	.	8ee\	.	8c\	.	8A\	.
.	.	.	.	.	.	.	.	.	.	.	.	8ff#\J)	.	8a\J	.	8d\J)	.	8d\J)	.
=16	=16	=16	=16	=16	=16	=16	=16	=16	=16	=16	=16	=16	=16	=16	=16	=16	=16	=16	=16
2.r	2.r	.	2.r	2.r	.	2.r	2.r	.	2.r	2.r	.	(8gg\L	.	8dd\L	.	(8d\L	.	(8B\L	.
.	.	.	.	.	.	.	.	.	.	.	.	8dd\J)	.	8b\J)	.	8g\J)	.	8G\J	.
.	.	.	.	.	.	.	.	.	.	.	.	8r	.	8r	.	8r	.	4d\	.
.	.	.	.	.	.	.	.	.	.	.	.	(4.ee\	.	(8b\L	.	(8g\L	.	.	.
.	.	.	.	.	.	.	.	.	.	.	.	.	.	8dd\	.	8b\	.	8G\L	.
.	.	.	.	.	.	.	.	.	.	.	.	.	.	8cc\J	.	8a\J	.	8c\J)	.
=17	=17	=17	=17	=17	=17	=17	=17	=17	=17	=17	=17	=17	=17	=17	=17	=17	=17	=17	=17
2.r	2.r	.	2.r	2.r	.	2.r	2.r	.	2.r	2.r	.	4.dd\)	.	8a\L	.	8f#\L	.	(8c\L	.
.	.	.	.	.	.	.	.	.	.	.	.	.	.	8cc\	.	8a\	.	8F#\	.
.	.	.	.	.	.	.	.	.	.	.	.	.	.	8b\J)	.	8g\J)	.	8G\J)	.
!	!	!	!	!	!	!	!	!	!	!	!	! 16ddP/	!	! 16bP/	!	!	!	!	!
.	.	.	.	.	.	.	.	.	.	.	.	8ccp'\L	.	8ap'/L	.	8e'\L	.	8C'/L	.
.	.	.	.	.	.	.	.	.	.	.	.	8b'\	.	8g'/	.	8d'\	.	8D'/	.
.	.	.	.	.	.	.	.	.	.	.	.	8a'\J	.	8f#'/J	.	8c'\J	.	8D'/J	.
=18	=18	=18	=18	=18	=18	=18	=18	=18	=18	=18	=18	=18	=18	=18	=18	=18	=18	=18	=18
8r	8r	.	8r	8r	.	8r	8r	.	8r	8r	.	8g/	.	8g/	.	8B/	.	8GG/	.
8bb\L	8b\L	f	8bb\L	8b\L	f	8B\L	8BB\L	f	8ee/L	8e/L	f	8r	.	8r	.	8r	.	8r	.
8bb\J	8b\J	.	8bb\J	8b\J	.	8B\J	8BB\J	.	8ee/J	8e/J	.	8r	.	8r	.	8r	.	8r	.
8bb\L	8b\L	.	8bb\L	8b\L	.	8B\L	8BB\L	.	8ee/L	8e/L	.	4r	.	4r	.	4r	.	4r	.
8bb\	8b\	.	8bb\	8b\	.	8B\	8BB\	.	8ee/	8e/	.	.	.	.	.	.	.	.	.
8bb\J	8b\J	.	8bb\J	8b\J	.	8B\J	8BB\J	.	8ee/J	8e/J	.	8r	.	8r	.	8r	.	8r	.
=19	=19	=19	=19	=19	=19	=19	=19	=19	=19	=19	=19	=19	=19	=19	=19	=19	=19	=19	=19
(4.eee\	(4.gg\	.	(4.ee\	(4.g\	.	(4.e\	(4.B\	.	8ee/	8e/	.	(4bb\	f	16e/LL	f	16G/LL	f	8E\L	f
.	.	.	.	.	.	.	.	.	.	.	.	.	.	16e/	.	16G/	.	.	.
.	.	.	.	.	.	.	.	.	8r	8r	.	.	.	16e/	.	16G/	.	8E\	.
.	.	.	.	.	.	.	.	.	.	.	.	.	.	16e/	.	16G/	.	.	.
.	.	.	.	.	.	.	.	.	8r	8r	.	32aa\LLL	.	16e/	.	16G/	.	8E\J	.
.	.	.	.	.	.	.	.	.	.	.	.	32gg\	.	.	.	.	.	.	.
.	.	.	.	.	.	.	.	.	.	.	.	32ff#\	.	16e/JJ	.	16G/JJ	.	.	.
.	.	.	.	.	.	.	.	.	.	.	.	32ee\JJJ)	.	.	.	.	.	.	.
4.ddd#\)	4.ff#\)	.	4.dd#\)	4.a\)	.	4.f#\)	4.c\)	.	4r	4r	.	8ccc\L	.	16d#/LL	.	16A/LL	.	8E\L	.
.	.	.	.	.	.	.	.	.	.	.	.	.	.	16d#/	.	16A/	.	.	.
.	.	.	.	.	.	.	.	.	.	.	.	8ccc\	.	16d#/	.	16A/	.	8E\	.
.	.	.	.	.	.	.	.	.	.	.	.	.	.	16d#/	.	16A/	.	.	.
.	.	.	.	.	.	.	.	.	8r	8r	.	8ccc\J	.	16d#/	.	16A/	.	8E\J	.
.	.	.	.	.	.	.	.	.	.	.	.	.	.	16d#/JJ	.	16A/JJ	.	.	.
=20	=20	=20	=20	=20	=20	=20	=20	=20	=20	=20	=20	=20	=20	=20	=20	=20	=20	=20	=20
8eee\	8gg\	.	8ee\	8g\	.	8e\	8B\	.	2.r	2.r	.	(4.bb\	.	8e/	.	8G/	.	8E\	.
8r	8r	.	8r	8r	.	8r	8r	.	.	.	.	.	.	8r	.	8r	.	8r	.
8r	8r	.	8r	8r	.	8r	8r	.	.	.	.	.	.	8r	.	8r	.	8r	.
4r	4r	.	4r	4r	.	4r	4r	.	.	.	.	4.bb-\)	p	4r	.	4r	.	4r	.
8r	8r	.	8r	8r	.	8r	8r	.	.	.	.	.	.	8r	.	8r	.	8r	.
=21	=21	=21	=21	=21	=21	=21	=21	=21	=21	=21	=21	=21	=21	=21	=21	=21	=21	=21	=21
2.r	2.r	.	2.r	2.r	.	2.r	2.r	.	2.r	2.r	.	(16bb-\LL	.	(4e/	p	(4c#\	p	(4C#/	p
.	.	.	.	.	.	.	.	.	.	.	.	16aa\)	.	.	.	.	.	.	.
.	.	.	.	.	.	.	.	.	.	.	.	(16aa\	.	.	.	.	.	.	.
.	.	.	.	.	.	.	.	.	.	.	.	16gg\)	.	.	.	.	.	.	.
.	.	.	.	.	.	.	.	.	.	.	.	(16gg\	.	8a/)	.	8d\)	.	8D\)	.
.	.	.	.	.	.	.	.	.	.	.	.	16ff#\JJ)	.	.	.	.	.	.	.
.	.	.	.	.	.	.	.	.	.	.	.	(16ff#\LL	.	(16a/LL	.	(8B/L	.	8G\L	.
.	.	.	.	.	.	.	.	.	.	.	.	16ee\)	.	16g/)	.	.	.	.	.
.	.	.	.	.	.	.	.	.	.	.	.	(16ee\	.	(16g/	.	8A/	.	8A\	.
.	.	.	.	.	.	.	.	.	.	.	.	16dd\)	.	16f#/)	.	.	.	.	.
.	.	.	.	.	.	.	.	.	.	.	.	(16dd\	.	(16f#/	.	8G/J)	.	8AA\J	.
.	.	.	.	.	.	.	.	.	.	.	.	16cc#\JJ)	.	16e/JJ)	.	.	.	.	.
=22	=22	=22	=22	=22	=22	=22	=22	=22	=22	=22	=22	=22	=22	=22	=22	=22	=22	=22	=22
2.r	2.r	.	2.r	2.r	.	2.fn\	2.A\	pp	2.g/	2.G/	p	(4dd\	.	(16d/LL	.	16Fn/LL	.	8D\	.
.	.	.	.	.	.	.	.	.	.	.	.	.	.	16A/)	.	16F/	.	.	.
.	.	.	.	.	.	.	.	.	.	.	.	.	.	16A/	.	16F/	.	8r	.
.	.	.	.	.	.	.	.	.	.	.	.	.	.	16A/	.	16F/	.	.	.
!	!	!	!	!	!	!	!	!	!	!	!	! 32eeP/LLL	!	!	!	!	!	!	!
!	!	!	!	!	!	!	!	!	!	!	!	! 32ddP/	!	!	!	!	!	!	!
!	!	!	!	!	!	!	!	!	!	!	!	! 32cc#P/	!	!	!	!	!	!	!
!	!	!	!	!	!	!	!	!	!	!	!	! 32ddP/JJJ	!	!	!	!	!	!	!
.	.	.	.	.	.	.	.	.	.	.	.	8ffnp\)	.	16A/	.	16F/	.	8r	.
.	.	.	.	.	.	.	.	.	.	.	.	.	.	16A/JJ	.	16F/JJ	.	.	.
.	.	.	.	.	.	.	.	.	.	.	.	(4dd\	.	16A/LL	.	16F/LL	.	8D\	.
.	.	.	.	.	.	.	.	.	.	.	.	.	.	16A/	.	16F/	.	.	.
.	.	.	.	.	.	.	.	.	.	.	.	.	.	16A/	.	16F/	.	8r	.
.	.	.	.	.	.	.	.	.	.	.	.	.	.	16A/	.	16F/	.	.	.
!	!	!	!	!	!	!	!	!	!	!	!	! 32eeP/LLL	!	!	!	!	!	!	!
!	!	!	!	!	!	!	!	!	!	!	!	! 32ddP/	!	!	!	!	!	!	!
!	!	!	!	!	!	!	!	!	!	!	!	! 32cc#P/	!	!	!	!	!	!	!
!	!	!	!	!	!	!	!	!	!	!	!	! 32ddP/JJJ	!	!	!	!	!	!	!
.	.	.	.	.	.	.	.	.	.	.	.	8ffp\)	.	16A/	.	16F/	.	8r	.
.	.	.	.	.	.	.	.	.	.	.	.	.	.	16A/JJ	.	16F/JJ	.	.	.
=23	=23	=23	=23	=23	=23	=23	=23	=23	=23	=23	=23	=23	=23	=23	=23	=23	=23	=23	=23
!	!	!	!	!	!	!	!	!	!	!	!	!	!	! 16B-P/LL	!	!	!	!	!
!	!	!	!	!	!	!	!	!	!	!	!	!	!	! 16fP/JJ	!	!	!	!	!
[4bb-\	[4dd\	ff	4.dd\	4.b-\	f	2.B-\	2.BB-\	f	2.r	2.r	.	([4bb-\	f	([4ddp\	f	8Fn/L	f	8BB-\L	f
.	.	.	.	.	.	.	.	.	.	.	.	.	.	.	.	8fn\	.	8B-\	.
16.bb-\LL]	16.dd\LL]	.	.	.	.	.	.	.	.	.	.	16.bb-\LL]	.	16.dd\LL]	.	8f\J	.	8B-\J	.
32ffn\JJk	32b-\JJk	.	.	.	.	.	.	.	.	.	.	32ffn\JJk)	.	32b-\JJk)	.	.	.	.	.
[4ddd\	[4ffn\	.	[4ffn\	[4fn\	.	.	.	.	.	.	.	([4ddd\	.	([4ffn\	.	8f\L	.	8B-\L	.
.	.	.	.	.	.	.	.	.	.	.	.	.	.	.	.	8f\	.	8B-\	.
16.ddd\LL]	16.ff\LL]	.	16.ff\LL]	16.f\LL]	.	.	.	.	.	.	.	16.ddd\LL]	.	16.ff\LL]	.	8f\J	.	8B-\J	.
32cccn\JJk	32ee-\JJk	.	32ee-\JJk	32a\JJk	.	.	.	.	.	.	.	32cccn\JJk)	.	32ee-\JJk)	.	.	.	.	.
=24	=24	=24	=24	=24	=24	=24	=24	=24	=24	=24	=24	=24	=24	=24	=24	=24	=24	=24	=24
(8ccc\L	8ee-\L	.	(8ee-\L	8a\L	.	4.B-\	4.BB-\	.	2.r	2.r	.	(8ccc\L	.	(8ee-\L	.	[4.fn\	.	[4.B-\	.
8bb-\)	8dd\	.	8dd\)	8b-\	.	.	.	.	.	.	.	8bb-\)	.	8dd\)	.	.	.	.	.
8bb-'\J	8dd\J	.	8dd'\J	8b-\J	.	.	.	.	.	.	.	8bb-'\J	.	8dd'\J	.	.	.	.	.
4r	4r	.	4r	4r	.	4r	4r	.	.	.	.	(8bb-\L	p	[4.dd\	p	4.f\_	p	4.B-\]	p
.	.	.	.	.	.	.	.	.	.	.	.	8aa\)	.	.	.	.	.	.	.
8r	8r	.	8r	8r	.	8r	8r	.	.	.	.	8aa'\J	.	.	.	.	.	.	.
=25	=25	=25	=25	=25	=25	=25	=25	=25	=25	=25	=25	=25	=25	=25	=25	=25	=25	=25	=25
2.r	2.r	.	2.r	2.r	.	2.r	2.r	.	2.r	2.r	.	(8aa\L	.	8dd\L]	.	8f\L]	.	(2.BB-/	.
.	.	.	.	.	.	.	.	.	.	.	.	8gg#\)	.	(8een\	.	(8c#\	.	.	.
.	.	.	.	.	.	.	.	.	.	.	.	8gg#'\J	.	8ffn\J	.	8d\J	.	.	.
.	.	.	.	.	.	.	.	.	.	.	.	8gg#\L	.	8ee\L	.	8c#\L	.	.	.
.	.	.	.	.	.	.	.	.	.	.	.	8gg#\	.	8ff\	.	8d\	.	.	.
.	.	.	.	.	.	.	.	.	.	.	.	8gg#\J	.	8dd\J)	.	8fn\J)	.	.	.
=26	=26	=26	=26	=26	=26	=26	=26	=26	=26	=26	=26	=26	=26	=26	=26	=26	=26	=26	=26
*	*	*	*	*	*	*	*	*	*v	*v	*	*	*	*	*	*	*	*	*
!	!	!	!	!	!	!	!	!	! a 2.	!	!	!	!	!	!	!	!	!
!	!	!	!	!	!	!	!	!	!	!	!	!	!	!	!	!	!	!
2.r	2.r	.	2.r	2.r	.	2.r	2.r	.	[2.dd\	p	8aa\	.	8cc#/L	.	8e\L	.	8AA/)	.
.	.	.	.	.	.	.	.	.	.	.	8r	.	8e/	.	8c#\	.	8r	.
.	.	.	.	.	.	.	.	.	.	.	8r	.	8e/J	.	8c#\J	.	8r	.
.	.	.	.	.	.	.	.	.	.	.	(16dd\LL	.	8fn/L	.	8d\L	.	8A\	.
.	.	.	.	.	.	.	.	.	.	.	16cc#\	.	.	.	.	.	.	.
.	.	.	.	.	.	.	.	.	.	.	16dd\	.	8f/	.	8d\	.	8r	.
.	.	.	.	.	.	.	.	.	.	.	16ee\	.	.	.	.	.	.	.
.	.	.	.	.	.	.	.	.	.	.	16ffn\	.	8f/J	.	8d\J	.	8r	.
.	.	.	.	.	.	.	.	.	.	.	16dd\JJ	.	.	.	.	.	.	.
=27	=27	=27	=27	=27	=27	=27	=27	=27	=27	=27	=27	=27	=27	=27	=27	=27	=27	=27
2.r	2.r	.	2.r	2.r	.	2.r	2.r	.	2.dd\_	.	16cc#\LL	.	8e/L	.	8c#\L	.	8AA/	.
.	.	.	.	.	.	.	.	.	.	.	16ee\	.	.	.	.	.	.	.
.	.	.	.	.	.	.	.	.	.	.	16aa\	.	8e/	.	8c#\	.	8r	.
.	.	.	.	.	.	.	.	.	.	.	16gg\	.	.	.	.	.	.	.
.	.	.	.	.	.	.	.	.	.	.	16ffn\	.	8e/J	.	8c#\J	.	8r	.
.	.	.	.	.	.	.	.	.	.	.	16ee\JJ	.	.	.	.	.	.	.
.	.	.	.	.	.	.	.	.	.	.	16dd\LL	.	8fn/L	.	8d\L	.	8A\	.
.	.	.	.	.	.	.	.	.	.	.	16cc#\	.	.	.	.	.	.	.
.	.	.	.	.	.	.	.	.	.	.	16dd\	.	8f/	.	8d\	.	8r	.
.	.	.	.	.	.	.	.	.	.	.	16ee\	.	.	.	.	.	.	.
.	.	.	.	.	.	.	.	.	.	.	16ff\	.	8f/J	.	8d\J	.	8r	.
.	.	.	.	.	.	.	.	.	.	.	16dd\JJ)	.	.	.	.	.	.	.
=28	=28	=28	=28	=28	=28	=28	=28	=28	=28	=28	=28	=28	=28	=28	=28	=28	=28	=28
*	*	*	*	*	*	*v	*v	*	*	*	*	*	*	*	*	*	*	*
!	!	!	!	!	!	! a 2.	!	!	!	!	!	!	!	!	!	!	!
!	!	!	!	!	!	!	!	!	!	!	!	!	!	!	!	!	!
2.r	2.r	.	4r	2.r	.	[2.AA/	.	8dd\]	.	(16cc#/LL	.	8e/L	.	8c#/L	.	8AA/	.
.	.	.	.	.	.	.	.	.	.	16ee/	.	.	.	.	.	.	.
.	.	.	.	.	.	.	.	8r	.	16a/	.	8A/	.	8E/ 8C#/	.	8r	.
.	.	.	.	.	.	.	.	.	.	16g/	.	.	.	.	.	.	.
.	.	.	8r	.	.	.	.	8r	.	16fn/	.	8A/J	.	8E/ 8C#/J	.	8r	.
.	.	.	.	.	.	.	.	.	.	16e/JJ)	.	.	.	.	.	.	.
.	.	.	(16dd/LL	.	p	.	.	4r	.	(16d/LL	.	(4.G#/	.	8Fn/ 8D/L	.	8A\	.
.	.	.	16cc#/	.	.	.	.	.	.	16c#/	.	.	.	.	.	.	.
.	.	.	16dd/	.	.	.	.	.	.	16d/	.	.	.	8F/ 8D/	.	8r	.
.	.	.	16ee/	.	.	.	.	.	.	16e/	.	.	.	.	.	.	.
.	.	.	16ffn/	.	.	.	.	8r	.	16f/	.	.	.	8F/ 8D/J	.	8r	.
.	.	.	16dd/JJ	.	.	.	.	.	.	16d/JJ	.	.	.	.	.	.	.
=29	=29	=29	=29	=29	=29	=29	=29	=29	=29	=29	=29	=29	=29	=29	=29	=29	=29
*	*	*	*	*	*	*	*	*^	*	*	*	*	*	*	*	*	*
2.r	2.r	.	16cc#/LL	2.r	.	2.AA/_	.	2.r	2.r	.	16c#/LL	.	4.A/	.	8En/ 8C#/L	.	8AA/	.
.	.	.	16ee/	.	.	.	.	.	.	.	16e/	.	.	.	.	.	.	.
.	.	.	16aa/	.	.	.	.	.	.	.	16a/	.	.	.	8E/ 8C#/	.	8r	.
.	.	.	16gg/	.	.	.	.	.	.	.	16g/	.	.	.	.	.	.	.
.	.	.	16ffn/	.	.	.	.	.	.	.	16fn/	.	.	.	8E/ 8C#/J	.	8r	.
.	.	.	16ee/JJ	.	.	.	.	.	.	.	16e/JJ	.	.	.	.	.	.	.
.	.	.	16dd/LL	.	.	.	.	.	.	.	16d/LL	.	4.G#/	.	8Fn/ 8D/L	.	8A\	.
.	.	.	16cc#/	.	.	.	.	.	.	.	16c#/	.	.	.	.	.	.	.
.	.	.	16dd/	.	.	.	.	.	.	.	16d/	.	.	.	8F/ 8D/	.	8r	.
.	.	.	16ee/	.	.	.	.	.	.	.	16e/	.	.	.	.	.	.	.
.	.	.	16ff/	.	.	.	.	.	.	.	16f/	.	.	.	8F/ 8D/J	.	8r	.
.	.	.	16dd/JJ	.	.	.	.	.	.	.	16d/JJ)	.	.	.	.	.	.	.
=30	=30	=30	=30	=30	=30	=30	=30	=30	=30	=30	=30	=30	=30	=30	=30	=30	=30	=30
16r	4r	.	16cc#/LL)	4r	.	8AA/]	.	2.r	2.r	.	(16c#/LL	.	8A/)	.	8En/ 8C#/	.	8AA/	.
(16bb-/LL	.	p	(16b-/	.	.	.	.	.	.	.	16B-/	.	.	.	.	.	.	.
16aa/	.	.	16a/	.	.	8r	.	.	.	.	16A/	.	8r	.	8r	.	8r	.
16bb-/	.	.	16b-/	.	.	.	.	.	.	.	16B-/	.	.	.	.	.	.	.
16aa/	8r	.	16a/	8r	.	8r	.	.	.	.	16A/	.	8r	.	8r	.	8r	.
16bb-/JJ	.	.	16b-/JJ	.	.	.	.	.	.	.	16B-/JJ	.	.	.	.	.	.	.
16aa/LL	16r	.	16a/LL	16r	.	4r	.	.	.	.	16A/LL	.	16r	.	4r	.	4r	.
16ddd/	(16bb-\LL	p	16dd/	(16b-\LL	p	.	.	.	.	.	16d/	.	(16B-/LL	.	.	.	.	.
16ccc#/	16aa\	.	16cc#/	16a\	.	.	.	.	.	.	16c#/	.	16A/	.	.	.	.	.
16ddd/	16bb-\	.	16dd/	16b-\	.	.	.	.	.	.	16d/	.	16B-/	.	.	.	.	.
16ccc#/	16aa\	.	16cc#/	16a\	.	8r	.	.	.	.	16c#/	.	16A/	.	8r	.	8r	.
16ddd/JJ	16bb-\JJ	.	16dd/JJ	16b-\JJ	.	.	.	.	.	.	16d/JJ	.	16B-/JJ	.	.	.	.	.
=31	=31	=31	=31	=31	=31	=31	=31	=31	=31	=31	=31	=31	=31	=31	=31	=31	=31	=31
*	*	*	*	*	*	*^	*	*	*	*	*	*	*	*	*	*	*	*
16ccc#\LL)	16aa\LL)	.	16cc#\LL)	16a\LL)	.	2.r	2.r	.	2.r	2.r	.	16c#/LL)	.	16A/LL)	.	2.r	.	2.r	.
(16fffn\	16ddd\	.	(16ffn\	16dd\	.	.	.	.	.	.	.	(16fn/	.	(16d/	.	.	.	.	.
16eee\	16ccc#\	.	16ee\	16cc#\	.	.	.	.	.	.	.	16e/	.	16c#/	.	.	.	.	.
16fff\	16ddd\	.	16ff\	16dd\	.	.	.	.	.	.	.	16f/	.	16d/	.	.	.	.	.
16eee\	16ccc#\	.	16ee\	16cc#\	.	.	.	.	.	.	.	16e/	.	16c#/	.	.	.	.	.
! cresc.	!	!	! cresc.	!	!	!	!	!	!	!	!	! cresc.	!	! cresc.	!	!	!	!	!
16fff\JJ	16ddd\JJ	.	16ff\JJ	16dd\JJ	.	.	.	.	.	.	.	16f/JJ	.	16d/JJ	.	.	.	.	.
16eee\LL	16ccc#\LL	.	16ee\LL	16cc#\LL	.	.	.	.	.	.	.	16e/LL	.	16c#/LL	.	.	.	.	.
16fff#\	16ddd#\	.	16ff#\	16dd#\	.	.	.	.	.	.	.	16f#/	.	16d#/	.	.	.	.	.
16ggg\	16eee\	.	16gg\	16ee\	.	.	.	.	.	.	.	16g/	.	16e/	.	.	.	.	.
16fff#\	16ddd#\	.	16ff#\	16dd#\	.	.	.	.	.	.	.	16f#/	.	16d#/	.	.	.	.	.
16ggg\	16eee\	.	16gg\	16ee\	.	.	.	.	.	.	.	16g/	.	16e/	.	.	.	.	.
16fff#\JJ)	16ddd#\JJ	.	16ff#\JJ)	16dd#\JJ	.	.	.	.	.	.	.	16f#/JJ)	.	16d#/JJ)	.	.	.	.	.
=32	=32	=32	=32	=32	=32	=32	=32	=32	=32	=32	=32	=32	=32	=32	=32	=32	=32	=32	=32
*	*	*	*	*	*	*v	*v	*	*	*	*	*	*	*	*	*	*	*	*
[2.ggg\	[2.eee\	ff	[2.gg\	[2.ee\	ff	16r	.	[2.dd/	[2.dd\	ff	[2.g/	f	[2.e/	f	16r	.	16r	.
.	.	.	.	.	.	(16GG#/LL	f	.	.	.	.	.	.	.	(16G#/LL	f	(16GG#/LL	f
.	.	.	.	.	.	16AA/	.	.	.	.	.	.	.	.	16A/	.	16AA/	.
.	.	.	.	.	.	16BB/	.	.	.	.	.	.	.	.	16B/	.	16BB/	.
.	.	.	.	.	.	16C#/	.	.	.	.	.	.	.	.	16c#/	.	16C#/	.
.	.	.	.	.	.	16D/JJ	.	.	.	.	.	.	.	.	16d/JJ	.	16D/JJ	.
.	.	.	.	.	.	16E\LL	.	.	.	.	.	.	.	.	16e\LL	.	16E\LL	.
.	.	.	.	.	.	16F#\	.	.	.	.	.	.	.	.	16f#\	.	16F#\	.
.	.	.	.	.	.	16Gn\	.	.	.	.	.	.	.	.	16gn\	.	16Gn\	.
.	.	.	.	.	.	16F#\	.	.	.	.	.	.	.	.	16f#\	.	16F#\	.
.	.	.	.	.	.	16E\	.	.	.	.	.	.	.	.	16e\	.	16E\	.
.	.	.	.	.	.	16D\JJ	.	.	.	.	.	.	.	.	16d\JJ	.	16D\JJ	.
=33	=33	=33	=33	=33	=33	=33	=33	=33	=33	=33	=33	=33	=33	=33	=33	=33	=33	=33
8ggg\L]	8eee\L]	.	8gg\L]	8ee\L]	.	8C#/L)	.	8dd/]	8dd\]	.	8g/L]	.	8e/L]	.	8c#/L)	.	8C#/L)	.
8aa'\	8gg\	pp	8ee'\	8a\	p	8C#'/	p	8r	8ryy	.	8A'/	p	8G'/	p	8E'/	p	8C#'/	p
8aa'\J	8gg\J	.	8ee'\J	8a\J	.	8C#'/J	.	8r	8ryy	.	8A'/J	.	8G'/J	.	8E'/J	.	8C#'/J	.
8aa'\	8gg\	.	8ee'\	8a\	.	8C#'/	.	4r	4ryy	.	8A'/	.	8G'/	.	8E'/	.	8C#'/	.
8r	8r	.	8r	8r	.	8r	.	.	.	.	8r	.	8r	.	8r	.	8r	.
8r	8r	.	8r	8r	.	8r	.	8r	8ryy	.	8r	.	8r	.	8r	.	8r	.
=34	=34	=34	=34	=34	=34	=34	=34	=34	=34	=34	=34	=34	=34	=34	=34	=34	=34	=34
*	*	*	*	*	*	*^	*	*	*	*	*	*	*	*	*	*	*	*
2.r	2.r	.	2.r	2.r	.	2.r	2.r	.	2.r	2.r	.	(16bb\LL	pp	8g'/L	pp	8e'\L	pp	8c#'\L	pp
.	.	.	.	.	.	.	.	.	.	.	.	16aa\	.	.	.	.	.	.	.
.	.	.	.	.	.	.	.	.	.	.	.	16gg#\	.	8g'/	.	8e'\	.	8c#'\	.
.	.	.	.	.	.	.	.	.	.	.	.	16aa\	.	.	.	.	.	.	.
.	.	.	.	.	.	.	.	.	.	.	.	16gg#\	.	8g'/J	.	8e'\J	.	8c#'\J	.
.	.	.	.	.	.	.	.	.	.	.	.	16aa\JJ	.	.	.	.	.	.	.
.	.	.	.	.	.	.	.	.	.	.	.	16bb\LL	.	8g'/	.	8e'\	.	8c#'\	.
.	.	.	.	.	.	.	.	.	.	.	.	16aa\JJ)	.	.	.	.	.	.	.
.	.	.	.	.	.	.	.	.	.	.	.	8r	.	8r	.	8r	.	8r	.
.	.	.	.	.	.	.	.	.	.	.	.	8r	.	8r	.	8r	.	8r	.
=35	=35	=35	=35	=35	=35	=35	=35	=35	=35	=35	=35	=35	=35	=35	=35	=35	=35	=35	=35
2.r	2.r	.	2.r	2.r	.	[2.Dz/	2.r	zp	[2.gz/	[2.G/	zp	4r	.	4r	.	[2.Dz/	zp	[2.Dz\	zp
.	.	.	.	.	.	.	.	.	.	.	.	8r	.	8r	.	.	.	.	.
.	.	.	.	.	.	.	.	.	.	.	.	(8ff#\L	p	(8a/L	p	.	.	.	.
.	.	.	.	.	.	.	.	.	.	.	.	8dd\	.	8f#/	.	.	.	.	.
.	.	.	.	.	.	.	.	.	.	.	.	8ggn\J	.	8b/J	.	.	.	.	.
=36	=36	=36	=36	=36	=36	=36	=36	=36	=36	=36	=36	=36	=36	=36	=36	=36	=36	=36	=36
2.r	2.r	.	2.r	2.r	.	2.D/_	2.r	.	2.g/_	2.G/_	.	8ee\	.	8g/L	.	2.D/_	.	2.D\_	.
.	.	.	.	.	.	.	.	.	.	.	.	4aa\)	.	8e/	.	.	.	.	.
.	.	.	.	.	.	.	.	.	.	.	.	.	.	8c#/J)	.	.	.	.	.
.	.	.	.	.	.	.	.	.	.	.	.	(8ff#\L	.	(8a/L	.	.	.	.	.
.	.	.	.	.	.	.	.	.	.	.	.	8dd\	.	8f#/	.	.	.	.	.
.	.	.	.	.	.	.	.	.	.	.	.	8gg\J	.	8b/J	.	.	.	.	.
=37	=37	=37	=37	=37	=37	=37	=37	=37	=37	=37	=37	=37	=37	=37	=37	=37	=37	=37	=37
2.r	2.r	.	2.r	2.r	.	4.D/_	2.r	.	4.g/_	4.G/_	.	8ee\	.	8g/L	.	4.D/_	.	4.D\_	.
.	.	.	.	.	.	.	.	.	.	.	.	4aa\)	.	8e/	.	.	.	.	.
.	.	.	.	.	.	.	.	.	.	.	.	.	.	8c#/J)	.	.	.	.	.
.	.	.	.	.	.	8D/L]	.	.	8g/]	8G/]	.	8ff#'\L	.	8d'/L	.	8D/L]	.	8D\L]	.
.	.	.	.	.	.	8E'/	.	.	8r	8r	.	8gg'\	.	8dd'/	.	8d'/	.	8E'\	.
.	.	.	.	.	.	8F#'/J	.	.	8r	8r	.	8aa'\J	.	8dd'/J	.	8d'/J	.	8F#'\J	.
=38	=38	=38	=38	=38	=38	=38	=38	=38	=38	=38	=38	=38	=38	=38	=38	=38	=38	=38	=38
4r	4r	.	2.r	2.r	.	8G/	2.r	.	2.r	2.r	.	(8.bb\L	.	8dd\	.	8d\	.	8G\	.
.	.	.	.	.	.	8r	.	.	.	.	.	.	.	8r	.	8r	.	8r	.
.	.	.	.	.	.	.	.	.	.	.	.	16ccc#\k	.	.	.	.	.	.	.
8r	8r	.	.	.	.	8r	.	.	.	.	.	8ddd\J)	.	8r	.	8r	.	8r	.
(8aa'\L	(8cc#\L	p	.	.	.	(8AA/L	.	.	.	.	.	(8a'/L	.	(8c#/L	.	(8A'/L	.	(8AA/L	.
8aa'\	8dd\	.	.	.	.	8BB/	.	.	.	.	.	8a'/	.	8d/	.	8A'/	.	8BB/	.
8aa'\J)	8ee\J)	.	.	.	.	8C#/J)	.	.	.	.	.	8a'/J)	.	8e/J)	.	8A'/J)	.	8C#/J)	.
=39	=39	=39	=39	=39	=39	=39	=39	=39	=39	=39	=39	=39	=39	=39	=39	=39	=39	=39	=39
(4gg\	(4ee\	.	4r	4ryy	.	4.D/	2.r	.	[2.g/	[2.G/	.	(4g/	.	(4e/	.	4.A/	.	[2.D\	.
8ff#\)	8dd\)	.	8r	8ryy	.	.	.	.	.	.	.	8f#/)	.	8d/)	.	.	.	.	.
4r	4r	.	(8ff#/L	[4.dd\	.	(4cn/	.	.	.	.	.	(8f#/L	.	[4.d/	.	[4.D/	.	.	.
.	.	.	8dd/	.	.	.	.	.	.	.	.	8d/	.	.	.	.	.	.	.
8r	8r	.	8gg/J	.	.	8B/	.	.	.	.	.	8g/J	.	.	.	.	.	.	.
=40	=40	=40	=40	=40	=40	=40	=40	=40	=40	=40	=40	=40	=40	=40	=40	=40	=40	=40	=40
2.r	2.r	.	8ee/	8dd\L]	.	8B-/L	2.r	.	2.g/_	2.G/_	.	8e/	.	8d/L]	.	2.D/_	.	2.D\_	.
.	.	.	4aa/)	(8.cc#t\	.	16A/L	.	.	.	.	.	4a/)	.	(8.c#t/	.	.	.	.	.
.	.	.	.	.	.	16F#/	.	.	.	.	.	.	.	.	.	.	.	.	.
.	.	.	.	.	.	16G/	.	.	.	.	.	.	.	.	.	.	.	.	.
.	.	.	.	32b\LL	.	16E/JJ	.	.	.	.	.	.	.	32B/LL	.	.	.	.	.
.	.	.	.	32cc#\JJJ	.	.	.	.	.	.	.	.	.	32c#/JJJ	.	.	.	.	.
.	.	.	(8ff#/L	[4.dd\)	.	8D/L)	.	.	.	.	.	(8f#/L	.	[4.d/)	.	.	.	.	.
.	.	.	8dd/	.	.	(8cn/	.	.	.	.	.	8d/	.	.	.	.	.	.	.
.	.	.	8gg/J	.	.	8Bn/J	.	.	.	.	.	8g/J	.	.	.	.	.	.	.
=41	=41	=41	=41	=41	=41	=41	=41	=41	=41	=41	=41	=41	=41	=41	=41	=41	=41	=41	=41
4r	4r	.	8ee/	8dd\L]	.	8B-/L	2.r	.	4.g/_	4.G/_	.	8e/	.	8d/L]	.	4.D/_	.	4.D\_	.
.	.	.	4aa/)	(8.cc#t\	.	16A/L	.	.	.	.	.	4a/)	.	(8.c#t/	.	.	.	.	.
.	.	.	.	.	.	16F#/	.	.	.	.	.	.	.	.	.	.	.	.	.
8r	8r	.	.	.	.	16G/	.	.	.	.	.	.	.	.	.	.	.	.	.
.	.	.	.	32b\LL	.	16E/JJ	.	.	.	.	.	.	.	32B/LL	.	.	.	.	.
.	.	.	.	32cc#\JJJ	.	.	.	.	.	.	.	.	.	32c#/JJJ	.	.	.	.	.
8ff#'\L	8dd\L	.	4r	8dd\)	.	8D/)	.	.	8g/]	8G/]	.	8f#'/L	.	8d/L)	.	8D/L]	.	8D\L]	.
8gg'\	8dd\	.	.	8r	.	8r	.	.	8r	8r	.	8g'/	.	8d'/	.	8D'/	.	8E'\	.
8aa'\J	8dd\J	.	8r	8r	.	8r	.	.	8r	8r	.	8a'/J	.	8d'/J	.	8D'/J	.	8F#'\J	.
=42	=42	=42	=42	=42	=42	=42	=42	=42	=42	=42	=42	=42	=42	=42	=42	=42	=42	=42	=42
(8.bb/L	8dd\	.	4r	2.r	.	4r	2.r	.	2.r	2.r	.	(8.b\L	.	8d/	.	8D/	.	8G\	.
.	8r	.	.	.	.	.	.	.	.	.	.	.	.	8r	.	8r	.	8r	.
16ccc#/k	.	.	.	.	.	.	.	.	.	.	.	16cc#\k	.	.	.	.	.	.	.
8ddd/J)	8r	.	8r	.	.	8r	.	.	.	.	.	8dd\J)	.	8r	.	8r	.	8r	.
(8ff#'\L	8dd#\L	.	(8a'/L	.	.	(8Bn'/L	.	.	.	.	.	4r	.	4r	.	4r	.	4r	.
8ff#'\	8dd#\	.	8a'/	.	.	8B'/	.	.	.	.	.	.	.	.	.	.	.	.	.
8ff#'\J)	8dd#\J	.	8a'/J)	.	.	8B'/J)	.	.	.	.	.	8r	.	8r	.	8r	.	8r	.
=43	=43	=43	=43	=43	=43	=43	=43	=43	=43	=43	=43	=43	=43	=43	=43	=43	=43	=43	=43
(8.gg\L	8.ee\L	.	8g/	4r	.	8E/	4r	.	2.r	2.r	.	2.r	.	2.r	.	2.r	.	2.r	.
.	.	.	8r	.	.	8r	.	.	.	.	.	.	.	.	.	.	.	.	.
16aa\k	16ff#\k	.	.	.	.	.	.	.	.	.	.	.	.	.	.	.	.	.	.
8bb\J)	8gg\J	.	8r	8r	.	8r	8r	.	.	.	.	.	.	.	.	.	.	.	.
4r	4r	.	(8ee'\L	8cc#\L	.	(8g'\L	8A\L	.	.	.	.	.	.	.	.	.	.	.	.
.	.	.	8ee'\	8cc#\	.	8g'\	8A\	.	.	.	.	.	.	.	.	.	.	.	.
8r	8r	.	8ee'\J)	8cc#\J	.	8g'\J)	8A\J	.	.	.	.	.	.	.	.	.	.	.	.
=44	=44	=44	=44	=44	=44	=44	=44	=44	=44	=44	=44	=44	=44	=44	=44	=44	=44	=44	=44
4r	4r	.	(16ff#\LL	16dd\LL	.	8f#\	8d\	.	2.r	2.r	.	(4a/	.	(4f#/	.	(4A/	.	(4d\	.
.	.	.	16gg\	16ee\	.	.	.	.	.	.	.	.	.	.	.	.	.	.	.
.	.	.	16aa\	16ff#\	.	8r	8r	.	.	.	.	.	.	.	.	.	.	.	.
.	.	.	16ff#\	16dd\	.	.	.	.	.	.	.	.	.	.	.	.	.	.	.
8r	8r	.	16gg\	16b\	.	8r	8r	.	.	.	.	8g/	.	8e/	.	8B/	.	8G\)	.
.	.	.	16ee\JJ	16g\JJ	.	.	.	.	.	.	.	.	.	.	.	.	.	.	.
(16ddd\LL	16ff#\LL	.	8dd/)	8f#/	.	4r	4r	.	.	.	.	16f#/LL	.	16d/LL	.	4A/)	.	4A\	.
16eee\	16gg\	.	.	.	.	.	.	.	.	.	.	16g/	.	16e/	.	.	.	.	.
16fff#\	16aa\	.	8r	8r	.	.	.	.	.	.	.	16a/	.	16f#/	.	.	.	.	.
16ddd\	16ff#\	.	.	.	.	.	.	.	.	.	.	16f#/	.	16d/	.	.	.	.	.
16eee\	16gg\	.	8r	8r	.	8r	8r	.	.	.	.	16g/	.	16e/	.	8A/ 8G/	.	8AA/	.
16ccc#\JJ	16ee\JJ	.	.	.	.	.	.	.	.	.	.	16e/JJ)	.	16c#/JJ)	.	.	.	.	.
=45	=45	=45	=45	=45	=45	=45	=45	=45	=45	=45	=45	=45	=45	=45	=45	=45	=45	=45	=45
8ddd\)	8ff#\	.	8r	2.r	.	8r	2.r	.	2.r	2.r	.	8d/	.	8d/	.	8A/ 8F#/	.	8D\	.
8r	8r	.	(8a/L	.	.	(8AA/L	.	.	.	.	.	8r	.	8r	.	8r	.	8r	.
8r	8r	.	8dd/J	.	.	8D/J	.	.	.	.	.	8r	.	8r	.	8r	.	8r	.
4r	4r	.	8cc#/L	.	.	8C#/L	.	.	.	.	.	4r	.	4r	.	4r	.	4r	.
.	.	.	8gg/	.	.	8G/	.	.	.	.	.	.	.	.	.	.	.	.	.
8r	8r	.	8ff#/J	.	.	8F#/J	.	.	.	.	.	8r	.	8r	.	8r	.	8r	.
=46	=46	=46	=46	=46	=46	=46	=46	=46	=46	=46	=46	=46	=46	=46	=46	=46	=46	=46	=46
2.r	2.r	.	8bb/L	2.r	.	8B/L	2.r	.	2.r	2.r	.	8r	.	8r	.	8r	.	8r	.
.	.	.	8aa/J)	.	.	8A/J)	.	.	.	.	.	8r	.	8r	.	8r	.	8r	.
.	.	.	8r	.	.	8r	.	.	.	.	.	8f#/	.	8d/	.	8B'/	.	8B'\	.
.	.	.	4r	.	.	4r	.	.	.	.	.	(8f#/L	.	(8d/L	.	8G'/L	.	8G'\L	.
.	.	.	.	.	.	.	.	.	.	.	.	8g/)	.	8e/)	.	8E'/	.	8E'\	.
.	.	.	8r	.	.	8r	.	.	.	.	.	8e'/J	.	8c#'/J	.	8A'/J	.	8A'\J	.
=47	=47	=47	=47	=47	=47	=47	=47	=47	=47	=47	=47	=47	=47	=47	=47	=47	=47	=47	=47
2.r	2.r	.	8r	2.r	.	8r	2.r	.	2.r	2.r	.	8d/	.	8d/	.	8D/	.	8D\	.
.	.	.	(8a/L	.	.	(8AA/L	.	.	.	.	.	8r	.	8r	.	8r	.	8r	.
.	.	.	8dd/J	.	.	8D/J	.	.	.	.	.	8r	.	8r	.	8r	.	8r	.
.	.	.	8cc#/L	.	.	8C#/L	.	.	.	.	.	4r	.	4r	.	4r	.	4r	.
.	.	.	8gg/	.	.	8G/	.	.	.	.	.	.	.	.	.	.	.	.	.
.	.	.	8ff#/J	.	.	8F#/J	.	.	.	.	.	8r	.	8r	.	8r	.	8r	.
=48	=48	=48	=48	=48	=48	=48	=48	=48	=48	=48	=48	=48	=48	=48	=48	=48	=48	=48	=48
2.r	2.r	.	8bb/L	2.r	.	8B/L	2.r	.	2.r	2.r	.	8r	.	8r	.	8r	.	8r	.
.	.	.	8aa/J)	.	.	8A/J)	.	.	.	.	.	8r	.	8r	.	8r	.	8r	.
.	.	.	8r	.	.	8r	.	.	.	.	.	8f#/	.	8d/	.	8B'/	.	8B'\	.
.	.	.	4r	.	.	4r	.	.	.	.	.	(8f#/L	.	(8d/L	.	8G'/L	.	8G'\L	.
.	.	.	.	.	.	.	.	.	.	.	.	8g/)	.	8e/)	.	8E'/	.	8E'\	.
.	.	.	8r	.	.	8r	.	.	.	.	.	8e'/J	.	8c#'/J	.	8A'/J	.	8A'\J	.
=49	=49	=49	=49	=49	=49	=49	=49	=49	=49	=49	=49	=49	=49	=49	=49	=49	=49	=49	=49
(8bb\L	8gg\L	.	8b/L	(8g/L	.	(8B\L	8G\L	.	2.r	2.r	.	8r	.	8r	.	8r	.	8r	.
8aa\J)	8ff#\J	.	8a/J	8f#/J)	.	8A\J)	8F#\J	.	.	.	.	8r	.	8r	.	8r	.	8r	.
8r	8r	.	8r	8r	.	8r	8r	.	.	.	.	8f#/	.	8d/	.	8B'/	.	8B'\	.
4r	4r	.	4r	4r	.	4r	4r	.	.	.	.	(8f#/L	.	(8d/L	.	8G'/L	.	8G'\L	.
.	.	.	.	.	.	.	.	.	.	.	.	8g/)	.	8e/)	.	8E'/	.	8E'\	.
8r	8r	.	8r	8r	.	8r	8r	.	.	.	.	8e'/J	.	8c#'/J	.	8A'/J	.	8A'\J	.
=50	=50	=50	=50	=50	=50	=50	=50	=50	=50	=50	=50	=50	=50	=50	=50	=50	=50	=50	=50
(8ccc#\L	8gg\L	.	8cc#/L	(8g/L	.	(8c#\L	8G\L	.	2.r	2.r	.	8r	.	8r	.	8r	.	8r	.
8ddd\J)	8ff#\J	.	8dd/J	8f#/J)	.	8d\J)	8F#\J	.	.	.	.	8r	.	8r	.	8r	.	8r	.
8r	8r	.	8r	8r	.	8r	8ryy	.	.	.	.	8f#/	.	8d/	.	8B'/	.	8B'\	.
4r	4r	.	4r	4r	.	4r	4ryy	.	.	.	.	(8f#/L	.	(8d/L	.	8G'/L	.	8G'\L	.
.	.	.	.	.	.	.	.	.	.	.	.	8g/)	.	8e/)	.	8E'/	.	8E'\	.
*	*	*	*	*	*	*clefC4	*	*	*	*	*	*	*	*	*	*	*	*	*
8r	8r	.	8r	8r	.	8r	8ryy	.	.	.	.	8e'/J	.	8c#'/J	.	8A'/J	.	8A'\J	.
=51	=51	=51	=51	=51	=51	=51	=51	=51	=51	=51	=51	=51	=51	=51	=51	=51	=51	=51	=51
(8eee\	8ccc#\	.	(8ee\	8cc#\	.	(8e\	8c#\	.	2.r	2.r	.	8r	.	8r	.	8r	.	8r	.
[4fffn\	[4ddd\	.	[4ffn\	[4dd\	.	[4fn\	[4d\	.	.	.	.	8G#/L	.	8G#/L	.	8G#/L	.	8GG#/L	.
.	.	.	.	.	.	.	.	.	.	.	.	8G#/J	.	8G#/J	.	8G#/J	.	8GG#/J	.
4.fff\]	4.ddd\_	.	4.ff\]	4.dd\_	.	4.f\]	4.d\_	.	.	.	.	8G#/L	.	8G#/L	.	8G#/L	.	8GG#/L	.
.	.	.	.	.	.	.	.	.	.	.	.	8G#/	.	8G#/	.	8G#/	.	8GG#/	.
.	.	.	.	.	.	.	.	.	.	.	.	8G#/J	.	8G#/J	.	8G#/J	.	8GG#/J	.
=52	=52	=52	=52	=52	=52	=52	=52	=52	=52	=52	=52	=52	=52	=52	=52	=52	=52	=52	=52
4.fff#\	4.ddd\]	.	4.ff#\)	(4.dd\]	.	4.f#\	4.d\]	.	2.r	2.r	.	(8G#/L	.	(8G#/L	.	(8G#/L	.	(8GG#/L	.
.	.	.	.	.	.	.	.	.	.	.	.	8A/)	.	8A/)	.	8A/)	.	8AA/)	.
.	.	.	.	.	.	.	.	.	.	.	.	8A'/J	.	8A'/J	.	8A'/J	.	8AA'/J	.
4.ccc#\	4.gg\	.	4.ee\	4.cc#\	.	4.e\	4.G\	.	.	.	.	(8A/L	.	(8A/L	.	(8A/L	.	(8AA/L	.
.	.	.	.	.	.	.	.	.	.	.	.	8A#/)	.	8A#/)	.	8A#/)	.	8AA#/)	.
.	.	.	.	.	.	.	.	.	.	.	.	8A#'/J	.	8A#'/J	.	8A#'/J	.	8AA#'/J	.
=53	=53	=53	=53	=53	=53	=53	=53	=53	=53	=53	=53	=53	=53	=53	=53	=53	=53	=53	=53
4.ddd\)	4.ff#\	.	[2.dd/	4.dd\	.	4.d\)	4.F#\	.	2.r	2.r	.	(8A#/L	.	(8A#/L	.	(8A#/L	.	(8AA#/L	.
.	.	.	.	.	.	.	.	.	.	.	.	8B/)	.	8B/)	.	8B/)	.	8BB/)	.
.	.	.	.	.	.	.	.	.	.	.	.	8B'/J	.	8B'/J	.	8B'/J	.	8BB'/J	.
(4.gg#\	4.ffn\	.	.	4.g#/)	.	(4.fn\	[4.d\	.	.	.	.	(8B/L	.	(8B/L	.	(8B/L	.	(8BB/L	.
.	.	.	.	.	.	.	.	.	.	.	.	8B-/)	.	8B-/)	.	8B-/)	.	8BB-/)	.
.	.	.	.	.	.	.	.	.	.	.	.	8B-'/J	.	8B-'/J	.	8B-'/J	.	8BB-'/J	.
=54	=54	=54	=54	=54	=54	=54	=54	=54	=54	=54	=54	=54	=54	=54	=54	=54	=54	=54	=54
4.aa\	4.ff#\	.	(4.dd\]	4.a/	.	4.f#\	4.d\]	.	2.r	2.r	.	(8B-/L	.	(8B-/L	.	(8B-/L	.	(8BB-/L	.
.	.	.	.	.	.	.	.	.	.	.	.	8An/)	.	8An/)	.	8An/)	.	8AAn/)	.
.	.	.	.	.	.	.	.	.	.	.	.	8A'/J	.	8A'/J	.	8A'/J	.	8AA'/J	.
4.cc#\	[4.a\	.	4.gn/	4.e/	.	4.c#\	4.G\	.	.	.	.	8r	.	8A/	.	8A/	.	8AA/	.
.	.	.	.	.	.	.	.	.	.	.	.	8aa\L	.	8r	.	8r	.	8r	.
.	.	.	.	.	.	.	.	.	.	.	.	8aa\J	.	8r	.	8r	.	8r	.
=55	=55	=55	=55	=55	=55	=55	=55	=55	=55	=55	=55	=55	=55	=55	=55	=55	=55	=55	=55
4dd\)	4a\]	.	4f#/)	4d/	.	4.d\)	4.F#\	.	2.r	2.r	.	8r	.	(16A/LL	.	(4.d\	.	(4.D\	.
.	.	.	.	.	.	.	.	.	.	.	.	.	.	16d/	.	.	.	.	.
.	.	.	.	.	.	.	.	.	.	.	.	8aa\L	.	16f#/	.	.	.	.	.
.	.	.	.	.	.	.	.	.	.	.	.	.	.	16d/	.	.	.	.	.
8r	8r	.	8r	8r	.	.	.	.	.	.	.	8aa\J	.	16A/	.	.	.	.	.
.	.	.	.	.	.	.	.	.	.	.	.	.	.	16d/JJ	.	.	.	.	.
*	*	*	*	*	*	*clefF4	*	*	*	*	*	*	*	*	*	*	*	*	*
4r	4r	.	4r	4r	.	4.G\	4.E\	.	.	.	.	8r	.	16A/LL	.	4.c#\)	.	4.C#/)	.
.	.	.	.	.	.	.	.	.	.	.	.	.	.	16e/	.	.	.	.	.
.	.	.	.	.	.	.	.	.	.	.	.	(16bb\LL	.	16g/	.	.	.	.	.
.	.	.	.	.	.	.	.	.	.	.	.	16aa\	.	16e/	.	.	.	.	.
8r	8r	.	8r	8r	.	.	.	.	.	.	.	16gg\	.	16A/	.	.	.	.	.
.	.	.	.	.	.	.	.	.	.	.	.	16ee\JJ)	.	16e/JJ)	.	.	.	.	.
=56	=56	=56	=56	=56	=56	=56	=56	=56	=56	=56	=56	=56	=56	=56	=56	=56	=56	=56	=56
2.r	2.r	.	(4.ff#\	4.dd\	.	(4.F#\	4.D\	.	[2.dd/	[2.dd\	.	(16dd\LL	.	(16A/LL	.	(4.d\	.	(4.D\	.
.	.	.	.	.	.	.	.	.	.	.	.	16ff#\	.	16d/	.	.	.	.	.
.	.	.	.	.	.	.	.	.	.	.	.	16aa\	.	16f#/	.	.	.	.	.
.	.	.	.	.	.	.	.	.	.	.	.	16ddd\J)	.	16d/	.	.	.	.	.
.	.	.	.	.	.	.	.	.	.	.	.	8aa\J	.	16A/	.	.	.	.	.
.	.	.	.	.	.	.	.	.	.	.	.	.	.	16d/JJ)	.	.	.	.	.
.	.	.	4.gg\)	4.ee\	.	4.G\)	4.E\	.	.	.	.	8r	.	(16A/LL	.	4.c#\)	.	4.C#/)	.
.	.	.	.	.	.	.	.	.	.	.	.	.	.	16e/	.	.	.	.	.
.	.	.	.	.	.	.	.	.	.	.	.	8aa\L	.	16g/	.	.	.	.	.
.	.	.	.	.	.	.	.	.	.	.	.	.	.	16e/	.	.	.	.	.
.	.	.	.	.	.	.	.	.	.	.	.	8aa\J	.	16A/	.	.	.	.	.
.	.	.	.	.	.	.	.	.	.	.	.	.	.	16e/JJ)	.	.	.	.	.
=57	=57	=57	=57	=57	=57	=57	=57	=57	=57	=57	=57	=57	=57	=57	=57	=57	=57	=57	=57
(4.aa\	4.ff#\	.	(4.ff#\	4.dd\	.	(4.F#\	4.D\	.	2.dd/_	2.dd\]	.	8r	.	(16A/LL	.	(4.d\	.	(4.D\	.
.	.	.	.	.	.	.	.	.	.	.	.	.	.	16d/	.	.	.	.	.
.	.	.	.	.	.	.	.	.	.	.	.	8aa\L	.	16f#/	.	.	.	.	.
.	.	.	.	.	.	.	.	.	.	.	.	.	.	16d/	.	.	.	.	.
.	.	.	.	.	.	.	.	.	.	.	.	8aa\J	.	16A/	.	.	.	.	.
.	.	.	.	.	.	.	.	.	.	.	.	.	.	16d/JJ)	.	.	.	.	.
4.ccc#\)	4.gg\	.	4.ee\)	4.cc#\	.	4.G\)	4.E\	.	.	.	.	8r	.	(16c#/LL	.	[4.A/)	.	4.AA/)	.
.	.	.	.	.	.	.	.	.	.	.	.	.	.	16e/	.	.	.	.	.
.	.	.	.	.	.	.	.	.	.	.	.	(16bb\LL	.	16g/	.	.	.	.	.
.	.	.	.	.	.	.	.	.	.	.	.	16aa\	.	16e/	.	.	.	.	.
.	.	.	.	.	.	.	.	.	.	.	.	16gg\	.	16a/	.	.	.	.	.
.	.	.	.	.	.	.	.	.	.	.	.	16ee\JJ)	.	16g/JJ)	.	.	.	.	.
=58	=58	=58	=58	=58	=58	=58	=58	=58	=58	=58	=58	=58	=58	=58	=58	=58	=58	=58	=58
*>1st ending	*	*	*>1st ending	*	*	*>1st ending	*	*	*>1st ending	*	*	*>1st ending	*	*>1st ending	*	*>1st ending	*	*>1st ending	*
8ddd/L	8ff#\L	.	8dd/L	8dd\L	.	8F#\L	8D\L	.	8dd/L]	8g/L	.	8dd/L	.	8f#/L	.	8A/L]	.	8D\L	.
8dd/	8dd\	.	8a/	8f#\	.	8F#\	8D\	.	8g/	8G/	.	8d/	.	8A/	.	8F#/	.	8D\	.
8dd/J	8dd\J	.	8a/J	8f#\J	.	8F#\J	8D\J	.	8g/J	8G/J	.	8d/J	.	8A/J	.	8F#/J	.	8D\J	.
8dd/	8dd\	.	8a/	8f#/	.	8F#\	8D\	.	8g/	8G/	.	8d/	.	8A/	.	8F#/	.	8D\	.
8r	8ryy	.	8r	8ryy	.	8r	8r	.	8r	8r	.	8r	.	8r	.	8r	.	8r	.
8r	8ryy	.	8r	8ryy	.	8r	8r	.	8r	8r	.	8r	.	8r	.	8r	.	8r	.
=59:|!	=59:|!	=59:|!	=59:|!	=59:|!	=59:|!	=59:|!	=59:|!	=59:|!	=59:!	=59:!	=59:!	=59:|!	=59:|!	=59:|!	=59:|!	=59:|!	=59:|!	=59:|!	=59:|!
*>2nd ending	*	*	*>2nd ending	*	*	*>2nd ending	*	*	*>2nd ending	*	*	*>2nd ending	*	*>2nd ending	*	*>2nd ending	*	*>2nd ending	*
*>B	*	*	*>B	*	*	*>B	*	*	*>B	*	*	*>B	*	*>B	*	*>B	*	*>B	*
8ddd\	8ff#\	.	8dd/	8dd\	.	(4.F#\	4.D\	.	8dd\	8g\	.	4.dd\	.	(16f#/LL	.	(4.d\	.	4.D\	.
.	.	.	.	.	.	.	.	.	.	.	.	.	.	16d/	.	.	.	.	.
8r	8r	.	8r	8ryy	.	.	.	.	8r	8r	.	.	.	16A/	.	.	.	.	.
.	.	.	.	.	.	.	.	.	.	.	.	.	.	16d/	.	.	.	.	.
8r	8r	.	8r	8ryy	.	.	.	.	8r	8r	.	.	.	16f#/	.	.	.	.	.
.	.	.	.	.	.	.	.	.	.	.	.	.	.	16d/JJ)	.	.	.	.	.
4r	4r	.	4r	4ryy	.	4.E\	4.C#\	.	4r	4r	.	8r	.	(16c#/LL	.	4.A#/)	.	(4.A#\	.
.	.	.	.	.	.	.	.	.	.	.	.	.	.	16e/	.	.	.	.	.
.	.	.	.	.	.	.	.	.	.	.	.	8ff#\L	.	16f#/	.	.	.	.	.
.	.	.	.	.	.	.	.	.	.	.	.	.	.	16e/	.	.	.	.	.
8r	8r	.	8r	8ryy	.	.	.	.	8r	8r	.	8ff#\J	.	16c#/	.	.	.	.	.
.	.	.	.	.	.	.	.	.	.	.	.	.	.	16e/JJ)	.	.	.	.	.
=60	=60	=60	=60	=60	=60	=60	=60	=60	=60	=60	=60	=60	=60	=60	=60	=60	=60	=60	=60
2.r	2.r	.	4r	4r	.	4.D/)	4.BB/	.	2.r	2.r	.	8r	.	(16B/LL	.	(4.B/	.	4.B\	.
.	.	.	.	.	.	.	.	.	.	.	.	.	.	16d/	.	.	.	.	.
.	.	.	.	.	.	.	.	.	.	.	.	8ff#\L	.	16f#/	.	.	.	.	.
.	.	.	.	.	.	.	.	.	.	.	.	.	.	16d/	.	.	.	.	.
.	.	.	8r	8r	.	.	.	.	.	.	.	8ff#\J	.	16B/	.	.	.	.	.
.	.	.	.	.	.	.	.	.	.	.	.	.	.	16d/JJ)	.	.	.	.	.
.	.	.	(4.ee\	4.cc#\	.	(4.c#\	4.A#\	.	.	.	.	8r	.	(16A#/LL	.	4.F#/)	.	4.F#\)	.
.	.	.	.	.	.	.	.	.	.	.	.	.	.	16c#/	.	.	.	.	.
.	.	.	.	.	.	.	.	.	.	.	.	(16gg\LL	.	16e/	.	.	.	.	.
.	.	.	.	.	.	.	.	.	.	.	.	16ff#\	.	16c#/	.	.	.	.	.
.	.	.	.	.	.	.	.	.	.	.	.	16ee\	.	16A#/	.	.	.	.	.
.	.	.	.	.	.	.	.	.	.	.	.	16cc#\JJ)	.	16c#/JJ)	.	.	.	.	.
=61	=61	=61	=61	=61	=61	=61	=61	=61	=61	=61	=61	=61	=61	=61	=61	=61	=61	=61	=61
2.r	2.r	.	4.dd\	4.b\	.	4.d\	4.B\	.	[2.g/	[2.G/	.	(16b\LL	.	(16d/LL	.	(4.B/	.	(4.BB/	.
.	.	.	.	.	.	.	.	.	.	.	.	16dd\	.	16f#/	.	.	.	.	.
.	.	.	.	.	.	.	.	.	.	.	.	16ff#\	.	16b/	.	.	.	.	.
.	.	.	.	.	.	.	.	.	.	.	.	16bb\J)	.	16f#/	.	.	.	.	.
.	.	.	.	.	.	.	.	.	.	.	.	8ff#\J	.	16d/	.	.	.	.	.
.	.	.	.	.	.	.	.	.	.	.	.	.	.	16f#/JJ)	.	.	.	.	.
.	.	.	4.ccn\	4.a\	.	4.cn\	4.An\	.	.	.	.	8r	.	(16cn/LL	.	4.F#/)	.	4.F#\)	.
.	.	.	.	.	.	.	.	.	.	.	.	.	.	16d/	.	.	.	.	.
.	.	.	.	.	.	.	.	.	.	.	.	8dd\L	.	16a/	.	.	.	.	.
.	.	.	.	.	.	.	.	.	.	.	.	.	.	16d/	.	.	.	.	.
.	.	.	.	.	.	.	.	.	.	.	.	8dd\J	.	16c/	.	.	.	.	.
.	.	.	.	.	.	.	.	.	.	.	.	.	.	16d/JJ)	.	.	.	.	.
=62	=62	=62	=62	=62	=62	=62	=62	=62	=62	=62	=62	=62	=62	=62	=62	=62	=62	=62	=62
4r	4r	.	4.b/)	4.g/	.	4.B\)	4.G\	.	2.g/]	2.G/]	.	8r	.	(16B/LL	.	(4.G/	.	(4.G\	.
.	.	.	.	.	.	.	.	.	.	.	.	.	.	16d/	.	.	.	.	.
.	.	.	.	.	.	.	.	.	.	.	.	8dd\L	.	16g/	.	.	.	.	.
.	.	.	.	.	.	.	.	.	.	.	.	.	.	16d/	.	.	.	.	.
8r	8r	.	.	.	.	.	.	.	.	.	.	8dd\J	.	16B/	.	.	.	.	.
.	.	.	.	.	.	.	.	.	.	.	.	.	.	16d/JJ)	.	.	.	.	.
(4.cccn\	4.aa\	.	(4.a/	4.f#/	.	4.C/	(4.AA/	.	.	.	.	8r	.	(16c/LL	.	4.D/)	.	4.D\)	.
.	.	.	.	.	.	.	.	.	.	.	.	.	.	16d/	.	.	.	.	.
.	.	.	.	.	.	.	.	.	.	.	.	(16ee\LL	.	16f#/	.	.	.	.	.
.	.	.	.	.	.	.	.	.	.	.	.	16dd\	.	16d/	.	.	.	.	.
.	.	.	.	.	.	.	.	.	.	.	.	16ccn\	.	16c/	.	.	.	.	.
.	.	.	.	.	.	.	.	.	.	.	.	16a\JJ)	.	16d/JJ)	.	.	.	.	.
=63	=63	=63	=63	=63	=63	=63	=63	=63	=63	=63	=63	=63	=63	=63	=63	=63	=63	=63	=63
4.bb\	4.gg\	.	4.b/	4.g/	.	4.BB/	4.GG\)	.	2.ee/	2.e/	.	(16g\LL	.	(16B/LL	.	(4.G/	.	(4.G\	.
.	.	.	.	.	.	.	.	.	.	.	.	16b\	.	16d/	.	.	.	.	.
.	.	.	.	.	.	.	.	.	.	.	.	16dd\	.	16g/	.	.	.	.	.
.	.	.	.	.	.	.	.	.	.	.	.	16gg\J)	.	16d/	.	.	.	.	.
.	.	.	.	.	.	.	.	.	.	.	.	8dd\J	.	16B/	.	.	.	.	.
.	.	.	.	.	.	.	.	.	.	.	.	.	.	16d/JJ)	.	.	.	.	.
4.aa\	4.ff#\	.	4.f#/	4.d#/	.	(4.A/	4.F#\	.	.	.	.	8r	.	(16d#/LL	.	4.B/)	.	4.BB/)	.
.	.	.	.	.	.	.	.	.	.	.	.	.	.	16f#/	.	.	.	.	.
.	.	.	.	.	.	.	.	.	.	.	.	(16cc/LL	.	16a/	.	.	.	.	.
.	.	.	.	.	.	.	.	.	.	.	.	16b/	.	16f#/	.	.	.	.	.
.	.	.	.	.	.	.	.	.	.	.	.	16a/	.	16d#/	.	.	.	.	.
.	.	.	.	.	.	.	.	.	.	.	.	16f#/JJ)	.	16f#/JJ)	.	.	.	.	.
=64	=64	=64	=64	=64	=64	=64	=64	=64	=64	=64	=64	=64	=64	=64	=64	=64	=64	=64	=64
4.gg\	4.ee\	.	4.g/	4.e/	.	4.G\	4.E\	.	[2.cc/	[2.c/	.	(16e\LL	.	(16B/LL	.	(4.E/	.	(4.E\	.
.	.	.	.	.	.	.	.	.	.	.	.	16g\	.	16e/	.	.	.	.	.
.	.	.	.	.	.	.	.	.	.	.	.	16b\	.	16g/	.	.	.	.	.
.	.	.	.	.	.	.	.	.	.	.	.	16ee\J)	.	16e/	.	.	.	.	.
.	.	.	.	.	.	.	.	.	.	.	.	8b\J	.	16B/	.	.	.	.	.
.	.	.	.	.	.	.	.	.	.	.	.	.	.	16e/JJ)	.	.	.	.	.
4.bb\)	4.ffn\	.	4.b/)	4.fn/	.	4.Fn\)	4.D\	.	.	.	.	8r	.	(16B/LL	.	4.G/)	.	4.GG/)	.
.	.	.	.	.	.	.	.	.	.	.	.	.	.	16dn/	.	.	.	.	.
.	.	.	.	.	.	.	.	.	.	.	.	(16a/LL	.	16fn/	.	.	.	.	.
.	.	.	.	.	.	.	.	.	.	.	.	16g/	.	16d/	.	.	.	.	.
.	.	.	.	.	.	.	.	.	.	.	.	16fn/	.	16B/	.	.	.	.	.
.	.	.	.	.	.	.	.	.	.	.	.	16d/JJ)	.	16d/JJ)	.	.	.	.	.
=65	=65	=65	=65	=65	=65	=65	=65	=65	=65	=65	=65	=65	=65	=65	=65	=65	=65	=65	=65
8ccc\	8ee\	.	(4cc/	4e/	.	8E\	8C\	.	8cc/]	8c/]	.	(4c/	.	[2.c/	.	(4E/	.	[2.C/	.
8r	8r	.	.	.	.	8r	8r	.	8r	8r	.	.	.	.	.	.	.	.	.
8r	8r	.	8ee\	8g\	.	8r	8r	.	8r	8r	.	8e/	.	.	.	8G/	.	.	.
4r	4r	.	4dd/	4fn/	.	4r	4r	.	4r	4r	.	4d/	.	.	.	4Fn/	.	.	.
8r	8r	.	8cc/)	8e/	.	8r	8r	.	8r	8r	.	8c/)	.	.	.	8E/)	.	.	.
=66	=66	=66	=66	=66	=66	=66	=66	=66	=66	=66	=66	=66	=66	=66	=66	=66	=66	=66	=66
2.r	2.r	.	([4.ffn/	2.cc\	.	(4.a/	2.r	.	2.r	2.r	.	[4.fn/	.	2.c/]	.	(4A/	.	2.C/_	.
.	.	.	.	.	.	.	.	.	.	.	.	.	.	.	.	8c/	.	.	.
.	.	.	4ff/]	.	.	4.g/)	.	.	.	.	.	4f/]	.	.	.	4G/	.	.	.
.	.	.	[8ee/)	.	.	.	.	.	.	.	.	[8e/	.	.	.	8c/)	.	.	.
=67	=67	=67	=67	=67	=67	=67	=67	=67	=67	=67	=67	=67	=67	=67	=67	=67	=67	=67	=67
2.r	2.r	.	(8ee/L]	(4.a\	.	(2.fn/	2.r	.	2.r	2.r	.	(8e/L]	.	(4.A/	.	(2.Fn/	.	2.C/_	.
.	.	.	8cc#/	.	.	.	.	.	.	.	.	8c#/	.	.	.	.	.	.	.
.	.	.	8dd/J)	.	.	.	.	.	.	.	.	8d/J)	.	.	.	.	.	.	.
.	.	.	8g/L	[4.g\)	.	.	.	.	.	.	.	8G/L	.	[4.G/)	.	.	.	.	.
.	.	.	(16a-/L	.	.	.	.	.	.	.	.	(16A-/L	.	.	.	.	.	.	.
.	.	.	16an/	.	.	.	.	.	.	.	.	16An/	.	.	.	.	.	.	.
.	.	.	16b-/	.	.	.	.	.	.	.	.	16B-/	.	.	.	.	.	.	.
.	.	.	16bn/JJ)	.	.	.	.	.	.	.	.	16Bn/JJ)	.	.	.	.	.	.	.
=68	=68	=68	=68	=68	=68	=68	=68	=68	=68	=68	=68	=68	=68	=68	=68	=68	=68	=68	=68
2.r	2.r	.	(16cc/LL	8g\]	.	8e/)	2.r	.	2.r	2.r	.	(16cn/LL	.	8G/]	.	8E/)	.	8C/]	.
.	.	.	16cc#/	.	.	.	.	.	.	.	.	16c#/	.	.	.	.	.	.	.
.	.	.	16dd/	8r	.	8r	.	.	.	.	.	16d/	.	8r	.	8r	.	8r	.
.	.	.	16dd#/	.	.	.	.	.	.	.	.	16d#/	.	.	.	.	.	.	.
.	.	.	16een/	8r	.	8r	.	.	.	.	.	16e/	.	8r	.	8r	.	8r	.
.	.	.	16ffn/JJ	.	.	.	.	.	.	.	.	16fn/JJ	.	.	.	.	.	.	.
.	.	.	16ff#/LL	4r	.	4r	.	.	.	.	.	16f#/LL	.	4r	.	4r	.	4r	.
.	.	.	16gg/	.	.	.	.	.	.	.	.	16g/	.	.	.	.	.	.	.
.	.	.	16aan/	.	.	.	.	.	.	.	.	16an/	.	.	.	.	.	.	.
.	.	.	16gg/	.	.	.	.	.	.	.	.	16g/	.	.	.	.	.	.	.
.	.	.	16ffn/	8r	.	8r	.	.	.	.	.	16fn/	.	8r	.	8r	.	8r	.
.	.	.	16dd/JJ)xx	.	.	.	.	.	.	.	.	16dn/JJ)	.	.	.	.	.	.	.
=69	=69	=69	=69	=69	=69	=69	=69	=69	=69	=69	=69	=69	=69	=69	=69	=69	=69	=69	=69
(4ccc\	4ee\	.	8ccn/	2.r	.	(4c/	2.r	.	2.r	2.r	.	(4ccn\	.	(4e/	.	[2.c\	.	[2.C/	.
.	.	.	8r	.	.	.	.	.	.	.	.	.	.	.	.	.	.	.	.
8eee\	8gg\	.	8r	.	.	8e/	.	.	.	.	.	8ee\	.	8g/	.	.	.	.	.
4ddd\	4ffn\	.	4r	.	.	4d/	.	.	.	.	.	4dd\	.	4fn/	.	.	.	.	.
8ccc\)	8ee\	.	8r	.	.	8c/)	.	.	.	.	.	8cc\)	.	8e/)	.	.	.	.	.
=70	=70	=70	=70	=70	=70	=70	=70	=70	=70	=70	=70	=70	=70	=70	=70	=70	=70	=70	=70
(8ggg/L	2.ccc\	.	(4.aa/	2.r	.	(8g/L	2.r	.	2.r	2.r	.	(8gg\L	.	(4a/	.	2.c\]	.	2.C/_	.
8fff#/	.	.	.	.	.	8f#/	.	.	.	.	.	8ff#\	.	.	.	.	.	.	.
[8fffn/J	.	.	.	.	.	[8fn/J	.	.	.	.	.	[8ffn\J	.	8cc\	.	.	.	.	.
8fff/L]	.	.	4.gg/)	.	.	8f/L]	.	.	.	.	.	8ff\L]	.	4g/	.	.	.	.	.
8ddd#/	.	.	.	.	.	8d#/	.	.	.	.	.	8dd#\	.	.	.	.	.	.	.
[8eee/J)	.	.	.	.	.	[8e/J)	.	.	.	.	.	[8ee\J)	.	8cc\)	.	.	.	.	.
=71	=71	=71	=71	=71	=71	=71	=71	=71	=71	=71	=71	=71	=71	=71	=71	=71	=71	=71	=71
(8eee/L]	[2.gg\	.	(2.ffn/	2.r	.	(8e/L]	2.r	.	2.r	2.r	.	(8ee\L]	.	([2.fn/ 2.G/	.	[4.B/	.	2.C/_	.
8ccc#/	.	.	.	.	.	8c#/	.	.	.	.	.	8cc#\	.	.	.	.	.	.	.
8dddn/J)	.	.	.	.	.	8d/J)	.	.	.	.	.	8ddn\J)	.	.	.	.	.	.	.
(16ff#/LL	.	.	.	.	.	(16F#/LL	.	.	.	.	.	(16f#/LL	.	.	.	(8B\L]	.	.	.
16gg/	.	.	.	.	.	16G/	.	.	.	.	.	16g/	.	.	.	.	.	.	.
16gg#/	.	.	.	.	.	16G#/	.	.	.	.	.	16g#/	.	.	.	8c\	.	.	.
16aa/	.	.	.	.	.	16A/	.	.	.	.	.	16a/	.	.	.	.	.	.	.
16bb-/	.	.	.	.	.	16B-/	.	.	.	.	.	16b-/	.	.	.	8d\J)	.	.	.
16bbn/JJ	.	.	.	.	.	16Bn/JJ	.	.	.	.	.	16bn/JJ	.	.	.	.	.	.	.
=72	=72	=72	=72	=72	=72	=72	=72	=72	=72	=72	=72	=72	=72	=72	=72	=72	=72	=72	=72
8cccn/)	8gg\]	.	8ee/)	2.r	.	8cn/)	2.r	.	2.r	2.r	.	8ccn\)	.	8e/ 8G/])	.	8c\	.	8C/]	.
8r	8ryy	.	8r	.	.	8r	.	.	.	.	.	8r	.	8r	.	8r	.	8r	.
8r	8ryy	.	8r	.	.	8r	.	.	.	.	.	8c'/	.	8c'/	.	8c'\	.	8C'/	.
4r	4ryy	.	4r	.	.	4r	.	.	.	.	.	8B'/L	.	8B'/L	.	8B'\L	.	8BB'/L	.
.	.	.	.	.	.	.	.	.	.	.	.	8c'/	.	8c'/	.	8c'\	.	8C'/	.
8r	8ryy	.	8r	.	.	8r	.	.	.	.	.	8d'/J	.	8d'/J	.	8d'\J	.	8D'/J	.
=73	=73	=73	=73	=73	=73	=73	=73	=73	=73	=73	=73	=73	=73	=73	=73	=73	=73	=73	=73
2.r	2.r	.	4ffn/	(8cc\L	.	4d/	(8A-\L	.	2.r	2.r	.	8G/	.	8G/	.	8G/	.	8GG/	.
.	.	.	.	8b\J)	.	.	8G\J)	.	.	.	.	8r	.	8r	.	8r	.	8r	.
.	.	.	8r	8ryy	.	8r	8ryy	.	.	.	.	8fn'/	f	8fn'/	f	8fn'\	f	8Fn'\	f
.	.	.	4r	4ryy	.	4r	4ryy	.	.	.	.	8e-'/L	.	8e-'/L	.	8e-'\L	.	8E-'\L	.
.	.	.	.	.	.	.	.	.	.	.	.	8f'/	.	8f'/	.	8f'\	.	8F'\	.
.	.	.	8r	8ryy	.	8r	8ryy	.	.	.	.	8g'/J	.	8g'/J	.	8g'\J	.	8G'\J	.
=74	=74	=74	=74	=74	=74	=74	=74	=74	=74	=74	=74	=74	=74	=74	=74	=74	=74	=74	=74
(8bb-/L	4gg\	ff	4ee/	(8b-\L	f	4e/	(8d\L	f	2.r	2.r	.	8A/	.	8A/	.	8A/	.	8AA/	.
8aa/)	.	.	.	8a\)	.	.	8c#\)	.	.	.	.	8r	.	8r	.	8r	.	8r	.
8aa'/J	8gg\	.	8ee'/xx	8a\J	.	8e'/	8c#\J	.	.	.	.	8r	.	8r	.	8r	.	8r	.
(8aa'/L	8gg\L	.	(8ee'\L	8a\L	.	(8e'\L	8c#\L	.	.	.	.	4r	.	4r	.	4r	.	4r	.
8aa'/	8gg\	.	8ee'\	8a\	.	8e'\	8c#\	.	.	.	.	.	.	.	.	.	.	.	.
8aa'/J)	8gg\J	.	8ee'\J)	8a\J	.	8e'\J)	8c#\J	.	.	.	.	8r	.	8r	.	8r	.	8r	.
=75	=75	=75	=75	=75	=75	=75	=75	=75	=75	=75	=75	=75	=75	=75	=75	=75	=75	=75	=75
2.r	2.r	.	(4dd/	2.r	p	2.r	2.r	.	[2.g/	[2.G/	p	(4d/	p	[2.d/	p	(4Fn/	p	[2.D\	p
.	.	.	8ffn/	.	.	.	.	.	.	.	.	8fn/	.	.	.	8A/	.	.	.
.	.	.	4ee/	.	.	.	.	.	.	.	.	4e/	.	.	.	4G/	.	.	.
.	.	.	8dd/)	.	.	.	.	.	.	.	.	8d/)	.	.	.	8F/)	.	.	.
=76	=76	=76	=76	=76	=76	=76	=76	=76	=76	=76	=76	=76	=76	=76	=76	=76	=76	=76	=76
2.r	2.r	.	([4.gg/	2.r	.	2.r	2.r	.	2.g/_	2.G/_	.	([4.g/	.	2.d/]	.	(4B-/	.	2.D\_	.
.	.	.	.	.	.	.	.	.	.	.	.	.	.	.	.	8d\	.	.	.
.	.	.	4gg/]	.	.	.	.	.	.	.	.	4g/]	.	.	.	4A/	.	.	.
.	.	.	[8ffn/)	.	.	.	.	.	.	.	.	[8fn/)	.	.	.	8d\)	.	.	.
=77	=77	=77	=77	=77	=77	=77	=77	=77	=77	=77	=77	=77	=77	=77	=77	=77	=77	=77	=77
2.r	2.r	.	(8ffn/L]	2.r	.	2.r	2.r	.	2.g/_	2.G/_	.	(8fn/L]	.	(4.B-/	.	(2.G/	.	2.D\_	.
.	.	.	8dd#/	.	.	.	.	.	.	.	.	8d#/	.	.	.	.	.	.	.
.	.	.	8ee/J)	.	.	.	.	.	.	.	.	8e/J)	.	.	.	.	.	.	.
.	.	.	(16g#/LL	.	.	.	.	.	.	.	.	(16G#/LL	.	[4.A/)	.	.	.	.	.
.	.	.	16a/	.	.	.	.	.	.	.	.	16A/	.	.	.	.	.	.	.
.	.	.	16b-/	.	.	.	.	.	.	.	.	16B-/	.	.	.	.	.	.	.
.	.	.	16bn/	.	.	.	.	.	.	.	.	16Bn/	.	.	.	.	.	.	.
.	.	.	16cc/	.	.	.	.	.	.	.	.	16c/	.	.	.	.	.	.	.
.	.	.	16cc#/JJ	.	.	.	.	.	.	.	.	16c#/JJ	.	.	.	.	.	.	.
=78	=78	=78	=78	=78	=78	=78	=78	=78	=78	=78	=78	=78	=78	=78	=78	=78	=78	=78	=78
2.r	2.r	.	8ddn/)	2.r	.	2.r	2.r	.	8g/]	8G/]	.	8dn/)	.	8A/]	.	8Fn/)	.	8D\]	.
.	.	.	8r	.	.	.	.	.	8r	8r	.	8r	.	8r	.	8r	.	8r	.
.	.	.	8r	.	.	.	.	.	8r	8r	.	8d'/	.	8d'/	.	8d'\	.	8D'\	.
.	.	.	4r	.	.	.	.	.	4r	4r	.	8c#'/L	.	8c#'/L	.	8c#'\L	.	8C#'\L	.
.	.	.	.	.	.	.	.	.	.	.	.	8d'/	.	8d'/	.	8d'\	.	8D'\	.
.	.	.	8r	.	.	.	.	.	8r	8r	.	8e'/J	.	8e'/J	.	8e'\J	.	8E'\J	.
=79	=79	=79	=79	=79	=79	=79	=79	=79	=79	=79	=79	=79	=79	=79	=79	=79	=79	=79	=79
2.r	2.r	.	4gg/	(8dd\L	p	4e/	(8B-\L	p	2.r	2.r	.	8A/	.	8A/	.	8A/	.	8AA/	.
.	.	.	.	8cc#\J)	.	.	8A\J)	.	.	.	.	8r	.	8r	.	8r	.	8r	.
.	.	.	8r	8ryy	.	8r	8ryy	.	.	.	.	8g'/	f	8g'/	f	8g'\	f	8G'\	f
.	.	.	4r	4ryy	.	4r	4ryy	.	.	.	.	8fn'/L	.	8fn'/L	.	8fn'\L	.	8Fn'\L	.
.	.	.	.	.	.	.	.	.	.	.	.	8g'/	.	8g'/	.	8g'\	.	8G'\	.
.	.	.	8r	8ryy	.	8r	8ryy	.	.	.	.	8a'/J	.	8a'/J	.	8a'\J	.	8A'\J	.
=80	=80	=80	=80	=80	=80	=80	=80	=80	=80	=80	=80	=80	=80	=80	=80	=80	=80	=80	=80
(8ccc/L	4aa\	ff	4ff#/	(8ccn\L	f	4f#/	(8e\L	f	2.r	2.r	.	8Bn/	.	8Bn/	.	8Bn/	.	8BBn/	.
8bbn/)	.	.	.	8bn\)	.	.	8d#\)	.	.	.	.	8r	.	8r	.	8r	.	8r	.
8bb'/Jxx	8aa\	.	8ff#'/xx	8b\J	.	8f#'/	8d#\J	.	.	.	.	8r	.	8r	.	8r	.	8r	.
(8bb'/L	8aa\L	.	(8ff#'/L	8b\L	.	(8f#'\L	8d#\L	.	.	.	.	4r	.	4r	.	4r	.	4r	.
8bb'/	8aa\	.	8ff#'/	8b\	.	8f#'\	8d#\	.	.	.	.	.	.	.	.	.	.	.	.
8bb'/J)	8aa\J	.	8ff#'/J)	8b\J	.	8f#'\J)	8d#\J	.	.	.	.	8r	.	8r	.	8r	.	8r	.
=81	=81	=81	=81	=81	=81	=81	=81	=81	=81	=81	=81	=81	=81	=81	=81	=81	=81	=81	=81
(4ee/	2.r	p	2.r	2.r	.	2.r	2.r	.	2.r	2.r	.	(4e/	p	[2.e/	p	(4G/	p	[2.E\xx	p
8gg/	.	.	.	.	.	.	.	.	.	.	.	8g/	.	.	.	8B/	.	.	.
4ff#/	.	.	.	.	.	.	.	.	.	.	.	4f#/	.	.	.	4A/	.	.	.
8ee/)	.	.	.	.	.	.	.	.	.	.	.	8e/)	.	.	.	8G/)	.	.	.
=82	=82	=82	=82	=82	=82	=82	=82	=82	=82	=82	=82	=82	=82	=82	=82	=82	=82	=82	=82
([4.aa/	2.r	.	2.r	2.r	.	2.r	2.r	.	2.r	2.r	.	([4.a/	.	2.e/]	.	(4c\	.	2.E\]	.
.	.	.	.	.	.	.	.	.	.	.	.	.	.	.	.	8e\	.	.	.
4aa/]	.	.	.	.	.	.	.	.	.	.	.	4a/]	.	.	.	4B/	.	.	.
[8gg/)	.	.	.	.	.	.	.	.	.	.	.	[8g/)	.	.	.	8e\)	.	.	.
=83	=83	=83	=83	=83	=83	=83	=83	=83	=83	=83	=83	=83	=83	=83	=83	=83	=83	=83	=83
(8gg/L]	2.r	.	2.r	2.r	.	2.r	2.r	.	4r	4ryy	.	(8g/L]	.	4.c/	.	[4.A/	.	[4.AA/	.
8ee#/	.	.	.	.	.	.	.	.	.	.	.	8e#/	.	.	.	.	.	.	.
8ff#/J)	.	.	.	.	.	.	.	.	8r	8ryy	.	8f#/J)	.	.	.	.	.	.	.
(16a#/LL	.	<	.	.	.	.	.	.	4r	4ryy	.	(16A#/LL	<	(16A#/LL	<	4A/]	.	4AA/]	.
16b/	.	.	.	.	.	.	.	.	.	.	.	16B/	.	16B/	.	.	.	.	.
16ccn/	.	.	.	.	.	.	.	.	.	.	.	16cn/	.	16cn/	.	.	.	.	.
16cc#/	.	.	.	.	.	.	.	.	.	.	.	16c#/	.	16c#/	.	.	.	.	.
16dd/	.	.	.	.	.	.	.	.	8dd/	8dd\	f	16d/	.	16d/	.	8B/	f	8A'\	f
16dd#/JJ	.	]	.	.	.	.	.	.	.	.	.	16d#/JJ	]	16d#/JJ)	]	.	.	.	.
=84	=84	=84	=84	=84	=84	=84	=84	=84	=84	=84	=84	=84	=84	=84	=84	=84	=84	=84	=84
8een/)	4r	.	4r	4r	.	4r	4r	.	8cc/L	8cc\L	.	8en/)	.	16e'/LL	f	16B'\LL	.	8G'\L	.
.	.	.	.	.	.	.	.	.	.	.	.	.	.	16e'/	.	16B'\	.	.	.
8r	.	.	.	.	.	.	.	.	8dd/	8dd\	.	8r	.	16e'/	.	16f#'\	.	8A'\	.
.	.	.	.	.	.	.	.	.	.	.	.	.	.	16e'/	.	16f#'\	.	.	.
! a 2.	!	!	!	!	!	!	!	!	!	!	!	!	!	!	!	!	!	!	!
8aa\	2ryy	.	8r	8r	.	8r	8r	.	8ee/J	8ee\J	.	8aan'\	f	16d#'/	.	16f#'\	.	8B'\J	.
.	.	.	.	.	.	.	.	.	.	.	.	.	.	16d#'/JJ	.	16f#'\JJ	.	.	.
8gg#'\L	.	.	(8dd\L	8b\L	f	(8B\L	8G#\L	ff	8ee\	8g\	.	8gg#'\L	.	16dn'/LL	.	16e'\LL	.	8E\	.
.	.	.	.	.	.	.	.	.	.	.	.	.	.	16d'/	.	16e'\	.	.	.
8aa'\	.	.	8cc\	8a\	.	8c\	8A\	.	8r	8r	.	8aa'\	.	16c'/	.	16e'\	.	8r	.
.	.	.	.	.	.	.	.	.	.	.	.	.	.	16c'/	.	16e'\	.	.	.
8bb'\J	.	.	8b\J)	8g#\J	.	8d\J)	8B\J	.	8r	8r	.	8bb'\J	.	16G#'/	.	16e'\	.	8d'\	.
.	.	.	.	.	.	.	.	.	.	.	.	.	.	16G#'/JJ	.	16e'\JJ	.	.	.
=85	=85	=85	=85	=85	=85	=85	=85	=85	=85	=85	=85	=85	=85	=85	=85	=85	=85	=85	=85
*v	*v	*	*	*	*	*	*	*	*	*	*	*	*	*	*	*	*	*	*
8ee\	.	4r	4r	.	4r	4r	.	2.r	2.r	.	8ee\	.	16A/LL	.	16e\LL	.	8c#'\L	.
.	.	.	.	.	.	.	.	.	.	.	.	.	16a/	.	16e\	.	.	.
8r	.	.	.	.	.	.	.	.	.	.	8r	.	16a/	.	16b\	.	8d'\	.
.	.	.	.	.	.	.	.	.	.	.	.	.	16a/	.	16b\	.	.	.
8ddd'\	.	8r	8r	.	8r	8r	.	.	.	.	8dd'\	.	16g#/	.	16b\	.	8e'\J	.
.	.	.	.	.	.	.	.	.	.	.	.	.	16g#/JJ	.	16b\JJ	.	.	.
8ccc#'\L	.	(8gg\L	8ee\L	.	(8e\L	8c#\L	.	.	.	.	8cc#'\L	.	16gn/LL	.	16a\LL	.	8A\	.
.	.	.	.	.	.	.	.	.	.	.	.	.	16g/	.	16a\	.	.	.
8ddd'\	.	8ffn\	8dd\	.	8fn\	8d\	.	.	.	.	8dd'\	.	16fn/	.	16a\	.	8r	.
.	.	.	.	.	.	.	.	.	.	.	.	.	16f/	.	16a\	.	.	.
8eee'\J	.	8ee\J)	8cc#\J	.	8g\J)	8e\J	.	.	.	.	8ee'\J	.	16c#/	.	16a\	.	8G'\	.
.	.	.	.	.	.	.	.	.	.	.	.	.	16c#/JJ	.	16a\JJ	.	.	.
=86	=86	=86	=86	=86	=86	=86	=86	=86	=86	=86	=86	=86	=86	=86	=86	=86	=86	=86
8aa\	.	4r	4r	.	4r	4r	.	8r	8r	.	8a/	.	16d/LL	.	16a\LL	.	8Fn'\L	.
.	.	.	.	.	.	.	.	.	.	.	.	.	16dd/	.	16a\	.	.	.
8r	.	.	.	.	.	.	.	8cc/L	8cc\L	.	8r	.	16dd/	.	16e\	.	8G'\	.
.	.	.	.	.	.	.	.	.	.	.	.	.	16dd/	.	16e\	.	.	.
8gg'\	.	8r	8r	.	8r	8r	.	8dd/J	8dd\J	.	8gg'\	.	16cc#/	.	16e\	.	8A'\J	.
.	.	.	.	.	.	.	.	.	.	.	.	.	16cc#/JJ	.	16e\JJ	.	.	.
8ff#'\L	.	(8cccn\L	8aa\L	.	(8A\L	8F#\L	.	8dd\	8g\	.	8ff#'\L	.	16ccn/LL	.	16d\LL	.	8D\	.
.	.	.	.	.	.	.	.	.	.	.	.	.	16cc/	.	16d\	.	.	.
8gg'\	.	8bb-\	8gg\	.	8B-\	8G\	.	8r	8r	.	8gg'\	.	16b-/	.	16d\	.	8r	.
.	.	.	.	.	.	.	.	.	.	.	.	.	16b-/	.	16d\	.	.	.
8aa'\J	.	8aa\J)	8ff#\J	.	8cn\J)	8A\J	.	8dd\	8g\	.	8aa'\J	.	16f#/	.	16d\	.	8cn'\	.
.	.	.	.	.	.	.	.	.	.	.	.	.	16f#/JJ	.	16d\JJ	.	.	.
=87	=87	=87	=87	=87	=87	=87	=87	=87	=87	=87	=87	=87	=87	=87	=87	=87	=87	=87
8dd\	.	4r	4r	.	4r	4r	.	8cc/L	8c/L	.	8dd\	.	16g/LL	.	16d\LL	.	8B-'\L	.
.	.	.	.	.	.	.	.	.	.	.	.	.	16g/	.	16d\	.	.	.
8r	.	.	.	.	.	.	.	8dd/	8cc/	.	8r	.	16g/	.	16a\	.	8c'\	.
.	.	.	.	.	.	.	.	.	.	.	.	.	16g/	.	16a\	.	.	.
8cccn'\	.	8r	8r	.	8r	8r	.	8dd/J	8g/J	.	8ccn'\	.	16f#/	.	16a\	.	8d'\J	.
.	.	.	.	.	.	.	.	.	.	.	.	.	16f#/JJ	.	16a\JJ	.	.	.
8bbn'\L	.	(8ffn\L	8dd\L	.	(8d\L	8Bn\L	.	8cc/	8c/	.	8bn'\L	.	16fn/LL	.	16g\LL	.	8G\	.
.	.	.	.	.	.	.	.	.	.	.	.	.	16f/	.	16g\	.	.	.
8ccc'\	.	8ee-\	8cc\	.	8e-\	8c\	.	8r	8r	.	8cc'\	.	16e-/	.	16g\	.	8r	.
.	.	.	.	.	.	.	.	.	.	.	.	.	16e-/	.	16g\	.	.	.
8ddd'\J	.	8dd\J)	8b\J	.	8fn\J)	8d\J	.	8r	8r	.	8dd'\J	.	16Bn/	.	16g\	.	8Fn'\	.
.	.	.	.	.	.	.	.	.	.	.	.	.	16B/JJ	.	16g\JJ	.	.	.
=88	=88	=88	=88	=88	=88	=88	=88	=88	=88	=88	=88	=88	=88	=88	=88	=88	=88	=88
8gg\	.	4r	4ryy	.	4r	4ryy	.	4r	4r	.	8g/	.	16c/LL	.	16g\LL	.	8E-'\L	.
.	.	.	.	.	.	.	.	.	.	.	.	.	16c/	.	16g\	.	.	.
8r	.	.	.	.	.	.	.	.	.	.	8r	.	16c/	.	16d\	.	8Fn'\	.
.	.	.	.	.	.	.	.	.	.	.	.	.	16c/	.	16d\	.	.	.
8fffn\	.	8dd\	8b\	.	8d\	8B\	.	8cc/	8c/	.	8ffn'\	.	16B/	.	16d\	.	8G'\J	.
.	.	.	.	.	.	.	.	.	.	.	.	.	16B/JJ	.	16d\JJ	.	.	.
8eee'\L	.	8een'/L	8cc\	.	8en'/L	8c\	.	4cc/	4c/	.	8ee'\L	.	8en'/L	.	8c\	.	8C/	.
8fff#'\	.	8ff#'/	8r	.	8f#'/	8r	.	.	.	.	8ff#'\	.	8f#'/	.	8r	.	8r	.
8ggg'\J	.	8gg'/J	8g\	.	8g'/J	8G\	.	8r	8r	.	8gg'\J	.	8g'/J	.	8G'/	.	8G'\	.
=89	=89	=89	=89	=89	=89	=89	=89	=89	=89	=89	=89	=89	=89	=89	=89	=89	=89	=89
8ccc'\L	.	8cc/L	8e'/L	.	8c'\L	8E\L	.	2.r	2.r	.	8cc'\L	.	8c'/L	.	8e'\L	.	8en'\L	.
8ddd'\	.	8dd/	8f#'/	.	8d'\	8F#\	.	.	.	.	8dd'\	.	8d'/	.	8f#'\	.	8f#'\	.
8eee'\J	.	8ee/J	8g'/J	.	8e'\J	8G\J	.	.	.	.	8ee'\J	.	8e'/J	.	8g'\J	.	8g'\J	.
8aa'\L	.	8aa'\L	8cc\L	.	8A'\L	8C\L	.	.	.	.	8a'\L	.	8A'/L	.	8c'\L	.	8c'\L	.
8bb'\	.	8bb'\	8dd\	.	8B'\	8D\	.	.	.	.	8b'\	.	8B'/	.	8d'\	.	8d'\	.
8ccc'\J	.	8ccc'\J	8ee\J	.	8c'\J	8E\J	.	.	.	.	8cc'\J	.	8c'/J	.	8e'\J	.	8e'\J	.
=90	=90	=90	=90	=90	=90	=90	=90	=90	=90	=90	=90	=90	=90	=90	=90	=90	=90	=90
*^	*	*	*	*	*	*	*	*	*	*	*	*	*	*	*	*	*	*
8dd\	2ryy	.	8dd/	8d/	.	8D/	8FF#/	.	2.r	2.r	.	(8d/L	fp	[2.c/	fp	[2.A/	fp	8F#\	.
8r	.	.	8r	8r	.	8r	8r	.	.	.	.	8cc/	.	.	.	.	.	8r	.
8r	.	.	8gg'\	8g\	p	8r	8r	.	.	.	.	8e-/J	.	.	.	.	.	(8E-\L	p
4r	.	.	8ff#'\L	8f#\L	.	4r	4r	.	.	.	.	8d/L	.	.	.	.	.	8D\J)	.
.	8ryy	.	8gg'\	8g\	.	.	.	.	.	.	.	8cc/	.	.	.	.	.	8r	.
(8eee-\	(8ee-\	p	8aa'\J	8a\J	.	8G/	8GG'/	p	.	.	.	8e-/J)	.	.	.	.	.	8r	.
=91	=91	=91	=91	=91	=91	=91	=91	=91	=91	=91	=91	=91	=91	=91	=91	=91	=91	=91	=91
8ddd\)	8dd\)	.	8dd/	8d/	.	8F#/L	8FF#'/L	.	2.r	2.r	.	(8d/L	.	2.c/_	.	2.A/_	.	4r	.
8r	8r	.	8r	8r	.	8G/	8GG'/	.	.	.	.	8cc/	.	.	.	.	.	.	.
8r	8r	.	8gg'\	8g\	.	8A/J	8AA'/J	.	.	.	.	8e-/J	.	.	.	.	.	(8E-\L	.
4r	4r	.	8ff#'\L	8f#\L	.	8D/	8DD/	.	.	.	.	8d/L	.	.	.	.	.	8D\J)	.
.	.	.	8gg'\	8g\	.	8r	8r	.	.	.	.	8cc/	.	.	.	.	.	8r	.
(8eee-\	(8ee-\	.	8aa'\J	8a\J	.	8G'/	8GG'/	.	.	.	.	8e-/J)	.	.	.	.	.	8r	.
=92	=92	=92	=92	=92	=92	=92	=92	=92	=92	=92	=92	=92	=92	=92	=92	=92	=92	=92	=92
8ddd\)	8dd\)	.	8dd/	8d/	.	8F#/L	8FF#'/L	.	2.r	2.r	.	(8d/L	.	2.c/_	.	2.A/_	.	4r	.
8r	8r	.	8r	8r	.	8G/	8GG'/	.	.	.	.	8cc/	.	.	.	.	.	.	.
8r	8r	.	8gg'\	8g\	.	8A/J	8AA'/J	.	.	.	.	8e-/J	.	.	.	.	.	(8E-\L	.
4r	4r	.	8ff#'\L	8f#\L	.	8D/	8DD/	.	.	.	.	8d/L	.	.	.	.	.	8D\J)	.
.	.	.	8gg'\	8g\	.	8r	8r	.	.	.	.	8cc/	.	.	.	.	.	8r	.
(8eee-\	(8ee-\	.	8aa'\J	8a\J	.	8r	8r	.	.	.	.	8e-/J)	.	.	.	.	.	(8G\	.
=93	=93	=93	=93	=93	=93	=93	=93	=93	=93	=93	=93	=93	=93	=93	=93	=93	=93	=93	=93
8ddd\)	8dd\)	.	8dd'/L	8d\	.	8D'/L	4r	.	2.r	2.r	.	8d'/L	.	8c/]	.	8A/]	.	8F#\)	.
8r	8r	.	8een'/	8r	.	8E'/	.	.	.	.	.	8en'/	.	8r	.	8r	.	8r	.
8r	8r	.	8ff#'/J	8r	.	8F#'/J	8r	.	.	.	.	8f#'/J	.	8r	.	8r	.	8r	.
4r	4r	.	8ff#'\L	8dd\L	.	8F#'\L	8D'\L	.	.	.	.	8f#'/L	.	8d'/L	.	4r	.	4r	.
.	.	.	8gg'\	8ee\	.	8G'\	8E'\	.	.	.	.	8g'/	.	8e'/	.	.	.	.	.
8r	8r	.	8aa'\J	8ff#\J	.	8A'\J	8F#'\J	.	.	.	.	8a'/J	.	8f#'/J	.	8r	.	8r	.
=94	=94	=94	=94	=94	=94	=94	=94	=94	=94	=94	=94	=94	=94	=94	=94	=94	=94	=94	=94
!	!	!	! cresc.	!	!	!	!	!	!	!	!	!	!	!	!	!	!	!	!
(8aa\L	8ff#\L	.	2.dd/	2.d/	.	(8A\L	8F#\L	.	(8dd\L	8g\L	p	(8a\L	.	(8f#/L	.	2.r	.	2.r	.
! cresc.	!	!	!	!	!	! cresc.	!	!	! cresc.	!	!	! cresc.	!	! cresc.	!	!	!	!	!
8bb\	8gg\	.	.	.	.	8B\	8G\	.	8ee\	8cc\	.	8b\	.	8g/	.	.	.	.	.
8ccc\J)	8aa\J	.	.	.	.	8c\J)	8A\J	.	8ff\J)	8dd\J	.	8cc\J)	.	8a/J)	.	.	.	.	.
! 16dddP/	! 16bbP/	!	!	!	!	! 16dP/	! 16BP/	!	! 16ggP/	! 16eeP/	!	! 16ddP/	!	! 16bP/	!	!	!	!	!
(8cccp\L	8aap\L	.	.	.	.	(8cp\L	8Ap\L	.	(8ffp\L	8ddp\L	.	(8ccp\L	.	(8ap/L	.	.	.	.	.
8bb\	8gg\	.	.	.	.	8B\	8G\	.	8ee\	8cc\	.	8b\	.	8g/	.	.	.	.	.
8aa\J)	8ff#\J	.	.	.	.	8A\J)	8F#\J	.	8dd\J)	8g\J	.	8a\J)	.	8f#/J)	.	.	.	.	.
=95	=95	=95	=95	=95	=95	=95	=95	=95	=95	=95	=95	=95	=95	=95	=95	=95	=95	=95	=95
(4gg/	4gg\	pp	8b/	8g/	p	(4G/	4G\	pp	[2.cc/	[2.c/	p	(4g/	p	(4B/	p	[2.G/	p	[2.G\	p
.	.	.	8r	8r	.	.	.	.	.	.	.	.	.	.	.	.	.	.	.
8bb\	8dd\	.	8r	8r	.	8B/	8r	.	.	.	.	8b/	.	8d/	.	.	.	.	.
4aa\	4cc\	.	4r	4r	.	4A/	4r	.	.	.	.	4a/	.	4c/	.	.	.	.	.
8gg\)	8b\	.	8r	8r	.	8G/)	8r	.	.	.	.	8g/)	.	8B/)	.	.	.	.	.
=96	=96	=96	=96	=96	=96	=96	=96	=96	=96	=96	=96	=96	=96	=96	=96	=96	=96	=96	=96
(8ddd/L	(2.gg\	.	(4.ee/	2.r	p	(8d/L	2.r	.	2.cc/_	2.c/_	.	(8dd\L	.	(4e/	.	2.G/]	.	2.G\_	.
8ccc#/	.	.	.	.	.	8c#/	.	.	.	.	.	8cc#\	.	.	.	.	.	.	.
[8cccn/J	.	.	.	.	.	[8cn/J	.	.	.	.	.	[8ccn\J	.	8g/	.	.	.	.	.
8ccc/L]	.	.	4.dd/)	.	.	8c/L]	.	.	.	.	.	8cc\L]	.	4d/	.	.	.	.	.
8aa#/	.	.	.	.	.	8A#/	.	.	.	.	.	8a#\	.	.	.	.	.	.	.
[8bb/J)	.	.	.	.	.	[8B/J)	.	.	.	.	.	[8b\J)	.	8g/)	.	.	.	.	.
=97	=97	=97	=97	=97	=97	=97	=97	=97	=97	=97	=97	=97	=97	=97	=97	=97	=97	=97	=97
(8bb/L]	&(4.ee-\)	.	(2.cc/	2.r	.	(8B/L]	2.r	.	2.cc/_	2.c/_	.	(8b/L]	.	([4.e-/ 4.c/	.	[4.F#/	.	2.G\_	.
8gg#/	.	.	.	.	.	8G#/	.	.	.	.	.	8g#/	.	.	.	.	.	.	.
8aan/J)	.	.	.	.	.	8An/J)	.	.	.	.	.	8an/J)	.	.	.	.	.	.	.
(16cc#/LL	[4.dd\&)	.	.	.	.	(16C#/LL	.	.	.	.	.	(16c#/LL	.	4.d/ 4.c/])	.	(8F#/L]	.	.	.
16dd/	.	.	.	.	.	16D/	.	.	.	.	.	16d/	.	.	.	.	.	.	.
16dd#/	.	.	.	.	.	16D#/	.	.	.	.	.	16d#/	.	.	.	8G/	.	.	.
16een/	.	.	.	.	.	16E/	.	.	.	.	.	16e/	.	.	.	.	.	.	.
16ffn/	.	.	.	.	.	16Fn/	.	.	.	.	.	16fn/	.	.	.	8A/J)	.	.	.
16ff#/JJ	.	.	.	.	.	16F#/JJ	.	.	.	.	.	16f#/JJ	.	.	.	.	.	.	.
=98	=98	=98	=98	=98	=98	=98	=98	=98	=98	=98	=98	=98	=98	=98	=98	=98	=98	=98	=98
8ggn/)	8dd\]	.	8b/)	2.r	.	8Gn/)	2.r	.	8cc/L]	8c/L]	.	8gn/)	.	16d/ 16B/LL	.	16G/LL	.	8G\]	.
.	.	.	.	.	.	.	.	.	.	.	.	.	.	16B/	.	16d/	.	.	.
8r	8ryy	.	8r	.	.	8r	.	.	8g/	8G/	.	8r	.	16B/	.	16d/	.	8r	.
.	.	.	.	.	.	.	.	.	.	.	.	.	.	16B/	.	16d/	.	.	.
8r	8ryy	.	8r	.	.	8r	.	.	8g/J	8G/J	.	8gg'\	.	16B/	.	16d/	.	8r	.
.	.	.	.	.	.	.	.	.	.	.	.	.	.	16B/JJ	.	16d/JJ	.	.	.
4r	4ryy	.	4r	.	.	4r	.	.	[4.g/	[4.G/	.	8ff#'\L	.	16c/LL	.	16d\LL	.	4r	.
.	.	.	.	.	.	.	.	.	.	.	.	.	.	16c/	.	16d\	.	.	.
.	.	.	.	.	.	.	.	.	.	.	.	8gg'\	.	16c/	.	16d\	.	.	.
.	.	.	.	.	.	.	.	.	.	.	.	.	.	16c/	.	16d\	.	.	.
8r	8ryy	.	8r	.	.	8r	.	.	.	.	.	8aa'\J	.	16c/	.	16d\	.	8G'\	.
.	.	.	.	.	.	.	.	.	.	.	.	.	.	16c/JJ	.	16d\JJ	.	.	.
=99	=99	=99	=99	=99	=99	=99	=99	=99	=99	=99	=99	=99	=99	=99	=99	=99	=99	=99	=99
2.r	2.r	.	2.r	2.r	.	2.r	2.r	.	8g/L]	8G/L]	.	8dd\	.	(16c/LL	.	16d\LL	.	8F#'\L	.
.	.	.	.	.	.	.	.	.	.	.	.	.	.	16a/)	.	16d\	.	.	.
.	.	.	.	.	.	.	.	.	8g/	8G/	.	8r	.	16a'/	.	16d\	.	8G'\	.
.	.	.	.	.	.	.	.	.	.	.	.	.	.	16a'/	.	16d\	.	.	.
.	.	.	.	.	.	.	.	.	8g/J	8G/J	.	8ccc'\	.	16a'/	.	16d\	.	8A'\J	.
.	.	.	.	.	.	.	.	.	.	.	.	.	.	16a'/JJ	.	16d\JJ	.	.	.
.	.	.	.	.	.	.	.	.	[4.g/	[4.G/	.	8bb'\L	.	16a/LL	.	16d\LL	.	8D\	.
.	.	.	.	.	.	.	.	.	.	.	.	.	.	16a/	.	16d\	.	.	.
.	.	.	.	.	.	.	.	.	.	.	.	8ccc'\	.	16a/	.	16d\	.	8r	.
.	.	.	.	.	.	.	.	.	.	.	.	.	.	16a/	.	16d\	.	.	.
.	.	.	.	.	.	.	.	.	.	.	.	8ddd'\J	.	16a/	.	16d\	.	8c'\	.
.	.	.	.	.	.	.	.	.	.	.	.	.	.	16a/JJ	.	16d\JJ	.	.	.
=100	=100	=100	=100	=100	=100	=100	=100	=100	=100	=100	=100	=100	=100	=100	=100	=100	=100	=100	=100
2.r	2.r	.	2.r	2.r	.	2.r	2.r	.	8g/]	8G/]	.	8gg\	.	(16g/LL	.	16d\LL	.	8B'\L	.
.	.	.	.	.	.	.	.	.	.	.	.	.	.	16b/)	.	16d\	.	.	.
.	.	.	.	.	.	.	.	.	8r	8r	.	8r	.	16b'/	.	16d\	.	8c'\	.
.	.	.	.	.	.	.	.	.	.	.	.	.	.	16b'/	.	16d\	.	.	.
.	.	.	.	.	.	.	.	.	8r	8r	.	([8ddd\	.	16b'/	.	16d\	.	8d'\J	.
.	.	.	.	.	.	.	.	.	.	.	.	.	.	16b'/JJ	.	16d\JJ	.	.	.
.	.	.	.	.	.	.	.	.	4r	4r	.	8ddd\L]	.	(8b\L	.	(8g\L	.	(4e\	.
.	.	.	.	.	.	.	.	.	.	.	.	8gg\	.	8dd\	.	8b\	.	.	.
.	.	.	.	.	.	.	.	.	8r	8r	.	[8ccc\J	.	8cc\J	.	8a\J	.	8A\)	.
=101	=101	=101	=101	=101	=101	=101	=101	=101	=101	=101	=101	=101	=101	=101	=101	=101	=101	=101	=101
2.r	2.r	.	2.r	2.r	.	2.r	2.r	.	2.r	2.r	.	8ccc\L]	.	8a\L	.	8f#\L	.	(4d\	.
.	.	.	.	.	.	.	.	.	.	.	.	8ff#\	.	8cc\	.	8a\	.	.	.
.	.	.	.	.	.	.	.	.	.	.	.	8bb\J	.	8b\J	.	8g\J	.	8G\	.
.	.	.	.	.	.	.	.	.	.	.	.	8aa\L	.	8cc\L	.	8e\L	.	8c\L	.
.	.	.	.	.	.	.	.	.	.	.	.	8ccc\	.	8ee\	.	8c\	.	8A\	.
.	.	.	.	.	.	.	.	.	.	.	.	8ff#\J	.	8a\J)	.	8d\J)	.	8d\J)	.
=102	=102	=102	=102	=102	=102	=102	=102	=102	=102	=102	=102	=102	=102	=102	=102	=102	=102	=102	=102
4r	2.r	.	2.r	2.r	.	4r	2.r	.	2.r	2.r	.	8gg\L	.	(8dd\L	.	(8d\L	.	8B'\L	.
.	.	.	.	.	.	.	.	.	.	.	.	8dd\J)	.	8b\	.	8g\	.	8G'\J	.
8r	.	.	.	.	.	8r	.	.	.	.	.	8r	.	8a\J	.	8f#\J	.	([8d\	.
(4.eee/	.	p	.	.	.	(4.e/	.	p	.	.	.	(4.ee\	.	8b\L	.	8g\L	.	8d\L]	.
.	.	.	.	.	.	.	.	.	.	.	.	.	.	8dd\	.	8b\	.	8G\	.
.	.	.	.	.	.	.	.	.	.	.	.	.	.	8cc\J	.	8a\J	.	[8c\J	.
=103	=103	=103	=103	=103	=103	=103	=103	=103	=103	=103	=103	=103	=103	=103	=103	=103	=103	=103	=103
4.ddd/)	2.r	.	2.r	2.r	.	4.d/)	2.r	.	2.r	2.r	.	4.dd\)	.	8a\L	.	8f#\L	.	8c\L]	.
.	.	.	.	.	.	.	.	.	.	.	.	.	.	8cc\	.	8a\	.	8F#\	.
.	.	.	.	.	.	.	.	.	.	.	.	.	.	8b\J)	.	8g\J)	.	8G\J)	.
! 16dddP/	!	!	!	!	!	! 16dP/	!	!	!	!	!	! 16ddP/	!	! 16bP/	!	!	!	!	!
8cccp'/L	.	.	.	.	.	8cp'/L	.	.	.	.	.	8ccp'\L	.	8ap'/L	.	8e'\L	.	8C'/L	.
8bb'/	.	.	.	.	.	8B'/	.	.	.	.	.	8b'\	.	8g'/	.	8d'\	.	8D'/	.
8aa'/J	.	.	.	.	.	8A'/J	.	.	.	.	.	8a'\J	.	8f#'/J	.	8c'\J	.	8D'/J	.
=104	=104	=104	=104	=104	=104	=104	=104	=104	=104	=104	=104	=104	=104	=104	=104	=104	=104	=104	=104
8gg/	2.r	.	2.r	2.r	.	8G/	2.r	.	2.r	2.r	.	8g/	.	8g/	.	8B/	.	8GG/	.
8r	.	.	.	.	.	8r	.	.	.	.	.	8r	.	8r	.	8r	.	8r	.
8r	.	.	.	.	.	8r	.	.	.	.	.	8g'/	.	8g'/	.	8G'/	.	8G'\	.
4r	.	.	.	.	.	4r	.	.	.	.	.	8fn'/L	.	8fn'/L	.	8Fn'/L	.	8Fn'\L	.
.	.	.	.	.	.	.	.	.	.	.	.	8g'/	.	8g'/	.	8G'/	.	8G'\	.
8r	.	.	.	.	.	8r	.	.	.	.	.	8a-'/J	.	8a-'/J	.	8A-'/J	.	8A-'\J	.
=105	=105	=105	=105	=105	=105	=105	=105	=105	=105	=105	=105	=105	=105	=105	=105	=105	=105	=105	=105
2.r	2.r	.	4ffn/	(8cc\L	p	4d/	(8A-\L	p	2.r	2.r	.	8d/	.	8d/	.	8D/	.	8D\	.
.	.	.	.	8b\J)	.	.	8G\J)	.	.	.	.	8r	.	8r	.	8r	.	8r	.
.	.	.	8r	8ryy	.	8r	8ryy	.	.	.	.	8cc'\	f	8cc'\	f	8c'/	f	8c'\	f
.	.	.	4r	4ryy	.	4r	4ryy	.	.	.	.	8b'\L	.	8b'\L	.	8B'/L	.	8B'\L	.
.	.	.	.	.	.	.	.	.	.	.	.	8cc'\	.	8cc'\	.	8c'/	.	8c'\	.
.	.	.	8r	8ryy	.	8r	8ryy	.	.	.	.	8dd'\J	.	8dd'\J	.	8d'/J	.	8d'\J	.
=106	=106	=106	=106	=106	=106	=106	=106	=106	=106	=106	=106	=106	=106	=106	=106	=106	=106	=106	=106
(8fffn\L	8ffn\L	ff	4dd\	4b\	f	8An/L	(8AAn/L	ff	2.r	2.r	.	8e/	.	8e/	.	8E/	.	8E\	.
8eee\)	8ee\	.	.	.	.	8G#/	8GG#/)	.	.	.	.	8r	.	8r	.	8r	.	8r	.
8eee'\J	8ee\J	.	8dd\	8b\	.	8G#/J	8GG#'/J	.	.	.	.	8r	.	8r	.	8r	.	8r	.
8eee'\L	8ee\L	.	8dd\L	8b\L	.	8G#/L	8GG#'/L	.	.	.	.	4r	.	4r	.	4r	.	4r	.
8eee'\	8ee\	.	8dd\	8b\	.	8G#/	8GG#'/	.	.	.	.	.	.	.	.	.	.	.	.
8eee'\J	8ee\J	.	8dd\J	8b\J	.	8G#/J	8GG#'/J	.	.	.	.	8r	.	8r	.	8r	.	8r	.
=107	=107	=107	=107	=107	=107	=107	=107	=107	=107	=107	=107	=107	=107	=107	=107	=107	=107	=107	=107
(4eee/	(4.aa\	.	(4.cc\	4.a\	.	4.A\	4.AA\	.	[2.dd/	[2.dd\	ff	(4ee\	f	16A/LL	f	16c\LL	f	8AA\L	f
.	.	.	.	.	.	.	.	.	.	.	.	.	.	16A/	.	16c\	.	.	.
.	.	.	.	.	.	.	.	.	.	.	.	.	.	16A/	.	16c\	.	8A\	.
.	.	.	.	.	.	.	.	.	.	.	.	.	.	16A/	.	16c\	.	.	.
32ddd/LLL	.	.	.	.	.	.	.	.	.	.	.	32dd\LLL	.	16A/	.	16c\	.	8A\J	.
32ccc/	.	.	.	.	.	.	.	.	.	.	.	32cc\	.	.	.	.	.	.	.
32bb/	.	.	.	.	.	.	.	.	.	.	.	32b\	.	16A/JJ	.	16c\JJ	.	.	.
32aa/JJJ	.	.	.	.	.	.	.	.	.	.	.	32a\JJJ	.	.	.	.	.	.	.
8fffn/L)	4.ddd\)	.	4.gg#\)	4.b\	.	(4.fn\	4.d\	.	.	.	.	8ffn\L)	.	16G#/LL	.	16d\ 16B\LL	.	8A'\L	.
.	.	.	.	.	.	.	.	.	.	.	.	.	.	16G#/	.	16d\ 16B\	.	.	.
8fff/	.	.	.	.	.	.	.	.	.	.	.	8ff\	.	16G#/	.	16d\ 16B\	.	8A'\	.
.	.	.	.	.	.	.	.	.	.	.	.	.	.	16G#/	.	16d\ 16B\	.	.	.
8fff/J	.	.	.	.	.	.	.	.	.	.	.	8ff\J	.	16G#/	.	16d\ 16B\	.	8A'\J	.
.	.	.	.	.	.	.	.	.	.	.	.	.	.	16G#/JJ	.	16d\ 16B\JJ	.	.	.
=108	=108	=108	=108	=108	=108	=108	=108	=108	=108	=108	=108	=108	=108	=108	=108	=108	=108	=108	=108
(4.eee/	8ccc\	fp	8aa\	8cc\	.	&(4.e/)	8c\	fp	8dd/]	8dd\]	.	(4.ee\	fp	8A/	.	8c\	.	8A\	.
.	8r	.	8r	8r	.	.	8r	.	8r	8ryy	.	.	.	8r	.	8r	.	8r	.
.	8r	.	8r	8r	.	.	8r	.	8r	8ryy	.	.	.	8r	.	8r	.	8r	.
[4.eee-/)	4r	.	4r	4r	.	[4.e-/&)	4r	.	4r	4ryy	.	[4.ee-\)	.	4r	.	4r	.	4r	.
.	8r	.	8r	8r	.	.	8r	.	8r	8ryy	.	.	.	8r	.	8r	.	8r	.
=109	=109	=109	=109	=109	=109	=109	=109	=109	=109	=109	=109	=109	=109	=109	=109	=109	=109	=109	=109
(16eee-/LL]	2.r	.	2.r	2.r	.	(16e-/LL]	2.r	.	2.r	2.r	.	(16ee-\LL]	.	(4A/	p	(4F#/	p	(4F#\	p
16ddd/)	.	.	.	.	.	16d/)	.	.	.	.	.	16dd\)	.	.	.	.	.	.	.
(16ddd/	.	.	.	.	.	(16d/	.	.	.	.	.	(16dd\	.	.	.	.	.	.	.
16ccc/)	.	.	.	.	.	16c/)	.	.	.	.	.	16cc\)	.	.	.	.	.	.	.
(16ccc/	.	.	.	.	.	(16c/	.	.	.	.	.	(16cc\	.	8d/)	.	8G/)	.	8G\)	.
16bb/JJ)	.	.	.	.	.	16B/JJ)	.	.	.	.	.	16b\JJ)	.	.	.	.	.	.	.
(16bb/LL	.	.	.	.	.	(16B/LL	.	.	.	.	.	(16b/LL	.	(16d/LL	.	8E/L	.	8C/L	.
16aa/)	.	.	.	.	.	16A/)	.	.	.	.	.	16a/)	.	16c/)	.	.	.	.	.
(16aa/	.	.	.	.	.	(16A/	.	.	.	.	.	(16a/	.	(16c/	.	8D/	.	8D/	.
16gg/)	.	.	.	.	.	16G/)	.	.	.	.	.	16g/)	.	16B/)	.	.	.	.	.
(16gg/	.	.	.	.	.	(16G/	.	.	.	.	.	(16g/	.	(16B/	.	8D/J	.	8D/J	.
16ff#/JJ)	.	.	.	.	.	16F#/JJ)	.	.	.	.	.	16f#/JJ)	.	16A/JJ)	.	.	.	.	.
=110	=110	=110	=110	=110	=110	=110	=110	=110	=110	=110	=110	=110	=110	=110	=110	=110	=110	=110	=110
(4gg/	2.r	.	2.r	2.r	.	(4G/	2.r	.	2.cc/	2.c/	p	(4g/	.	16B-/LL	.	16D/LL	.	8G\	.
.	.	.	.	.	.	.	.	.	.	.	.	.	.	16B-/	.	16D/	.	.	.
.	.	.	.	.	.	.	.	.	.	.	.	.	.	16B-/	.	16D/	.	8r	.
.	.	.	.	.	.	.	.	.	.	.	.	.	.	16B-/	.	16D/	.	.	.
! 32aaP/LLL	!	!	!	!	!	! 32AP/LLL	!	!	!	!	!	! 32aP/LLL	!	!	!	!	!	!	!
! 32ggP/	!	!	!	!	!	! 32GP/	!	!	!	!	!	! 32gP/	!	!	!	!	!	!	!
! 32ff#P/	!	!	!	!	!	! 32F#P/	!	!	!	!	!	! 32f#P/	!	!	!	!	!	!	!
! 32ggP/JJJ	!	!	!	!	!	! 32GP/JJJ	!	!	!	!	!	! 32gP/JJJ	!	!	!	!	!	!	!
8bb-p/)	.	.	.	.	.	8B-p/)	.	.	.	.	.	8b-p/)	.	16B-/	.	16D/	.	8r	.
.	.	.	.	.	.	.	.	.	.	.	.	.	.	16B-/JJ	.	16D/JJ	.	.	.
(4gg/	.	.	.	.	.	(4G/	.	.	.	.	.	(4g/	.	16B-/LL	.	16D/LL	.	8G\	.
.	.	.	.	.	.	.	.	.	.	.	.	.	.	16B-/	.	16D/	.	.	.
.	.	.	.	.	.	.	.	.	.	.	.	.	.	16B-/	.	16D/	.	8r	.
.	.	.	.	.	.	.	.	.	.	.	.	.	.	16B-/	.	16D/	.	.	.
! 32aaP/LLL	!	!	!	!	!	! 32AP/LLL	!	!	!	!	!	! 32aP/LLL	!	!	!	!	!	!	!
! 32ggP/	!	!	!	!	!	! 32GP/	!	!	!	!	!	! 32gP/	!	!	!	!	!	!	!
! 32ff#P/	!	!	!	!	!	! 32F#P/	!	!	!	!	!	! 32f#P/	!	!	!	!	!	!	!
! 32ggP/JJJ	!	!	!	!	!	! 32GP/JJJ	!	!	!	!	!	! 32gP/JJJ	!	!	!	!	!	!	!
8bb-p/)	.	.	.	.	.	8B-p/)	.	.	.	.	.	8b-p/)	.	16B-/	.	16D/	.	8r	.
.	.	.	.	.	.	.	.	.	.	.	.	.	.	16B-/JJ	.	16D/JJ	.	.	.
=111	=111	=111	=111	=111	=111	=111	=111	=111	=111	=111	=111	=111	=111	=111	=111	=111	=111	=111	=111
([4eee-\	([4gg\	ff	4.b-/	4.g/	f	[2.E-/	[2.EE-/	f	2.r	2.r	.	([4ee-\	f	([4gn/ 4B-/	f	8B-/L	f	8E-\L	f
.	.	.	.	.	.	.	.	.	.	.	.	.	.	.	.	8B-/	.	8e-\	.
16.eee-\LL]	16.gg\LL]	.	.	.	.	.	.	.	.	.	.	16.ee-\LL]	.	16.g/LL]	.	8B-/J	.	8e-\J	.
32bb-\JJk)	32ee-\JJk)	.	.	.	.	.	.	.	.	.	.	32b-\JJk)	.	32e-/JJk)	.	.	.	.	.
([4ggg\	([4bb-\	.	([4bb-\	[4b-\	.	.	.	.	.	.	.	([4gg\	.	([4b-/	.	8B-/L	.	8e-\L	.
.	.	.	.	.	.	.	.	.	.	.	.	.	.	.	.	8B-/	.	8e-\	.
16.ggg\LL]	16.bb-\LL]	.	16.bb-\LL]	16.b-\LL]	.	.	.	.	.	.	.	16.gg\LL]	.	16.b-/LL]	.	8B-/J	.	8e-\J	.
32fffn\JJk)	32aa-\JJk)	.	32aa-\JJk)	32dd\JJk	.	.	.	.	.	.	.	32ffn\JJk)	.	32a-/JJk)	.	.	.	.	.
=112	=112	=112	=112	=112	=112	=112	=112	=112	=112	=112	=112	=112	=112	=112	=112	=112	=112	=112	=112
(8fffn\L	(8aa-\L	.	(8aa-\L	8dd\L	.	8E-/]	8EE-/]	.	2.r	2.r	.	(8ffn\L	.	(8a-/L	.	[2.B-/	fp	2.e-\	fp
8eee-\)	8gg\)	pp	8gg\)	8ee-\	p	8r	8r	.	.	.	.	8ee-\)	p	8g/)	p	.	.	.	.
8eee-'\J	8gg'\J	.	8gg'\J	8ee-\J	.	8r	8r	.	.	.	.	8ee-\J	.	8g/J	.	.	.	.	.
(8eee-/L	4r	.	4r	4r	.	4r	4r	.	.	.	.	(8ee-\L	.	[4.g/	.	.	.	.	.
8ddd/)	.	.	.	.	.	.	.	.	.	.	.	8dd\)	.	.	.	.	.	.	.
8ddd/J	8r	.	8r	8r	.	8r	8r	.	.	.	.	8dd\J	.	.	.	.	.	.	.
=113	=113	=113	=113	=113	=113	=113	=113	=113	=113	=113	=113	=113	=113	=113	=113	=113	=113	=113	=113
(8ddd/L	2.r	.	2.r	2.r	.	2.r	2.r	.	2.r	2.r	.	(8dd\L	.	8g/L]	.	8B-/L]	.	(2.E-\	.
8ccc#/)	.	.	.	.	.	.	.	.	.	.	.	8cc#\)	.	(8an/	.	(8F#/	.	.	.
8ccc#/J	.	.	.	.	.	.	.	.	.	.	.	8cc#\J	.	8b-/J	.	8G/J	.	.	.
8ccc#/L	.	.	.	.	.	.	.	.	.	.	.	8cc#\L	.	8a/L	.	8F#/L	.	.	.
8ccc#/	.	.	.	.	.	.	.	.	.	.	.	8cc#\	.	8b-/	.	8G/	.	.	.
8ccc#/J	.	.	.	.	.	.	.	.	.	.	.	8cc#\J	.	8g/J)	.	8B-/J)	.	.	.
=114	=114	=114	=114	=114	=114	=114	=114	=114	=114	=114	=114	=114	=114	=114	=114	=114	=114	=114	=114
8ddd/	2.r	.	2.r	2.r	.	2.r	2.r	.	[2.g/	[2.G/	p	8dd\	.	8f#/L	.	8A\L	.	8D\)	.
8r	.	.	.	.	.	.	.	.	.	.	.	8r	.	8a/	.	8f#\	.	8r	.
8r	.	.	.	.	.	.	.	.	.	.	.	8r	.	8a/J	.	8f#\J	.	8r	.
4r	.	.	.	.	.	.	.	.	.	.	.	(16gg\LL	.	8b-\L	.	8g\L	.	8d\	.
.	.	.	.	.	.	.	.	.	.	.	.	16ff#\	.	.	.	.	.	.	.
.	.	.	.	.	.	.	.	.	.	.	.	16gg\	.	8b-\	.	8g\	.	8r	.
.	.	.	.	.	.	.	.	.	.	.	.	16aa\	.	.	.	.	.	.	.
8r	.	.	.	.	.	.	.	.	.	.	.	16bb-\	.	8b-\J	.	8g\J	.	8r	.
.	.	.	.	.	.	.	.	.	.	.	.	16gg\JJ	.	.	.	.	.	.	.
=115	=115	=115	=115	=115	=115	=115	=115	=115	=115	=115	=115	=115	=115	=115	=115	=115	=115	=115	=115
2.r	2.r	.	2.r	2.r	.	2.r	2.r	.	2.g/_	2.G/_	.	16ff#\LL	.	8a/L	.	8f#\L	.	8D\	.
.	.	.	.	.	.	.	.	.	.	.	.	16aa\	.	.	.	.	.	.	.
.	.	.	.	.	.	.	.	.	.	.	.	16ddd\	.	8a/	.	8f#\	.	8r	.
.	.	.	.	.	.	.	.	.	.	.	.	16ccc\	.	.	.	.	.	.	.
.	.	.	.	.	.	.	.	.	.	.	.	16bb-\	.	8a/J	.	8f#\J	.	8r	.
.	.	.	.	.	.	.	.	.	.	.	.	16aa\JJ	.	.	.	.	.	.	.
.	.	.	.	.	.	.	.	.	.	.	.	16gg\LL	.	8b-\L	.	8g\L	.	8d\	.
.	.	.	.	.	.	.	.	.	.	.	.	16ff#\	.	.	.	.	.	.	.
.	.	.	.	.	.	.	.	.	.	.	.	16gg\	.	8b-\	.	8g\	.	8r	.
.	.	.	.	.	.	.	.	.	.	.	.	16aa\	.	.	.	.	.	.	.
.	.	.	.	.	.	.	.	.	.	.	.	16bb-\	.	8b-\J	.	8g\J	.	8r	.
.	.	.	.	.	.	.	.	.	.	.	.	16gg\JJ)	.	.	.	.	.	.	.
=116	=116	=116	=116	=116	=116	=116	=116	=116	=116	=116	=116	=116	=116	=116	=116	=116	=116	=116	=116
4r	4ryy	.	(4.a/	4.f#/	p	4r	2.r	.	2.g/_	2.G/_	.	(16ff#\LL	.	8a/L	.	8f#/L	.	8D\	.
.	.	.	.	.	.	.	.	.	.	.	.	16aa\	.	.	.	.	.	.	.
.	.	.	.	.	.	.	.	.	.	.	.	16dd\	.	8d/	.	8A/ 8F#/	.	8r	.
.	.	.	.	.	.	.	.	.	.	.	.	16cc\	.	.	.	.	.	.	.
8r	8ryy	.	.	.	.	8r	.	.	.	.	.	16b-\	.	8d/J	.	8A/ 8F#/J	.	8r	.
.	.	.	.	.	.	.	.	.	.	.	.	16a\JJ)	.	.	.	.	.	.	.
(16gg/LL	4.cc#\	p	4.b-/	4.g/	.	(16G/LL	.	p	.	.	.	(16g/LL	.	(4.c#/	.	8B-/ 8G/L	.	8d\	.
16ff#/	.	.	.	.	.	16F#/	.	.	.	.	.	16f#/	.	.	.	.	.	.	.
16gg/	.	.	.	.	.	16G/	.	.	.	.	.	16g/	.	.	.	8B-/ 8G/	.	8r	.
16aa/	.	.	.	.	.	16A/	.	.	.	.	.	16a/	.	.	.	.	.	.	.
16bb-/	.	.	.	.	.	16B-/	.	.	.	.	.	16b-/	.	.	.	8B-/ 8G/J	.	8r	.
16gg/JJ	.	.	.	.	.	16G/JJ	.	.	.	.	.	16g/JJ	.	.	.	.	.	.	.
=117	=117	=117	=117	=117	=117	=117	=117	=117	=117	=117	=117	=117	=117	=117	=117	=117	=117	=117	=117
16ff#/LL	4.dd\	.	4.a/	4.f#/	.	16F#/LL	2.r	.	2.g/_	2.G/_	.	16f#/LL	.	4.d/	.	8A/ 8F#/L	.	8D\	.
16aa/	.	.	.	.	.	16A/	.	.	.	.	.	16a/	.	.	.	.	.	.	.
16ddd/	.	.	.	.	.	16d/	.	.	.	.	.	16dd/	.	.	.	8A/ 8F#/	.	8r	.
16ccc/	.	.	.	.	.	16c/	.	.	.	.	.	16cc/	.	.	.	.	.	.	.
16bb-/	.	.	.	.	.	16B-/	.	.	.	.	.	16b-/	.	.	.	8A/ 8F#/J	.	8r	.
16aa/JJ	.	.	.	.	.	16A/JJ	.	.	.	.	.	16a/JJ	.	.	.	.	.	.	.
16gg/LL	4.cc#\	.	4.b-/	4.g/	.	16G/LL	.	.	.	.	.	16g/LL	.	4.c#/	.	8B-/ 8G/L	.	8d\	.
16ff#/	.	.	.	.	.	16F#/	.	.	.	.	.	16f#/	.	.	.	.	.	.	.
16gg/	.	.	.	.	.	16G/	.	.	.	.	.	16g/	.	.	.	8B-/ 8G/	.	8r	.
16aa/	.	.	.	.	.	16A/	.	.	.	.	.	16a/	.	.	.	.	.	.	.
16bb-/	.	.	.	.	.	16B-/	.	.	.	.	.	16b-/	.	.	.	8B-/ 8G/J	.	8r	.
16gg/JJ	.	.	.	.	.	16G/JJ	.	.	.	.	.	16g/JJ	.	.	.	.	.	.	.
=118	=118	=118	=118	=118	=118	=118	=118	=118	=118	=118	=118	=118	=118	=118	=118	=118	=118	=118	=118
16ff#/LL)	16dd\	.	8a/)	8f#/	.	16F#/LL)	4r	.	2.g/_	2.G/_	.	16f#/LL)	.	8d/)	.	8A/ 8F#/	.	8D\	.
(16ee-/	16r	.	.	.	.	(16E-/	.	.	.	.	.	(16e-/	.	.	.	.	.	.	.
16dd/	8r	.	8r	8r	.	16D/	.	.	.	.	.	16d/	.	8r	.	8r	.	8r	.
16ee-/	.	.	.	.	.	16E-/	.	.	.	.	.	16e-/	.	.	.	.	.	.	.
16dd/	8r	.	8r	8r	.	16D/	8r	.	.	.	.	16d/	.	8r	.	8r	.	8r	.
16ee-/JJ	.	.	.	.	.	16E-/JJ	.	.	.	.	.	16e-/JJ	.	.	.	.	.	.	.
16dd/LL	16r	.	4r	4r	.	16D/LL	16r	.	.	.	.	16d/LL	.	16r	.	4r	.	4r	.
16gg/	(16ee-\LL	.	.	.	.	16G/	(16E-\LL	.	.	.	.	16g/	.	(16e-/LL	.	.	.	.	.
16ff#/	16dd\	.	.	.	.	16F#/	16D\	.	.	.	.	16f#/	.	16d/	.	.	.	.	.
16gg/	16ee-\	.	.	.	.	16G/	16E-\	.	.	.	.	16g/	.	16e-/	.	.	.	.	.
16ff#/	16dd\	.	8r	8r	.	16F#/	16D\	.	.	.	.	16f#/	.	16d/	.	8r	.	8r	.
16gg/JJ	16ee-\JJ	.	.	.	.	16G/JJ	16E-\JJ	.	.	.	.	16g/JJ	.	16e-/JJ	.	.	.	.	.
=119	=119	=119	=119	=119	=119	=119	=119	=119	=119	=119	=119	=119	=119	=119	=119	=119	=119	=119	=119
!	!	!	!	!	!	!	!	!	! cresc.	!	!	!	!	!	!	!	!	!	!
16ff#\LL	16dd\LL	.	2.r	2.r	.	16F#\LL	16D\LL	.	2.g/_	2.G/_	.	16f#/LL	.	16d/LL	.	2.r	.	2.r	.
16bb-\	16gg\	.	.	.	.	16B-\	16G\	.	.	.	.	16b-/	.	16g/	.	.	.	.	.
16aa\	16ff#\	.	.	.	.	16A\	16F#\	.	.	.	.	16a/	.	16f#/	.	.	.	.	.
16bb-\	16gg\	.	.	.	.	16B-\	16G\	.	.	.	.	16b-/	.	16g/	.	.	.	.	.
16aa\	16ff#\	.	.	.	.	16A\	16F#\	.	.	.	.	16a/	.	16f#/	.	.	.	.	.
! cresc.	!	!	!	!	!	! cresc.	!	!	!	!	!	! cresc.	!	! cresc.	!	!	!	!	!
16bb-\JJ	16gg\JJ	.	.	.	.	16B-\JJ	16G\JJ	.	.	.	.	16b-/JJ	.	16g/JJ	.	.	.	.	.
16aa\LL	16ff#\LL	.	.	.	.	16A\LL	16F#\LL	.	.	.	.	16a/LL	.	16f#/LL	.	.	.	.	.
16bbn\	16gg#\	.	.	.	.	16Bn\	16G#\	.	.	.	.	16bn/	.	16g#/	.	.	.	.	.
16ccc\	16aa\	.	.	.	.	16c\	16A\	.	.	.	.	16cc/	.	16a/	.	.	.	.	.
16bb\	16gg#\	.	.	.	.	16B\	16G#\	.	.	.	.	16b/	.	16g#/	.	.	.	.	.
16ccc\	16aa\	.	.	.	.	16c\	16A\	.	.	.	.	16cc/	.	16a/	.	.	.	.	.
16bb\JJ)	16gg#\JJ)	.	.	.	.	16B\JJ)	16G#\JJ)	.	.	.	.	16b/JJ)	.	16g#/JJ)	.	.	.	.	.
=120	=120	=120	=120	=120	=120	=120	=120	=120	=120	=120	=120	=120	=120	=120	=120	=120	=120	=120	=120
[2.ccc\	[2.aa\	ff	[2.ff#\	[2.a\	f	[2.c\	[2.A\	ff	2.g/_	2.G/_	.	[2.cc\	f	[2.a/	f	16r	.	16r	.
.	.	.	.	.	.	.	.	.	.	.	.	.	.	.	.	(16C#/LL	f	(16C#\LL	f
.	.	.	.	.	.	.	.	.	.	.	.	.	.	.	.	16D/	.	16D\	.
.	.	.	.	.	.	.	.	.	.	.	.	.	.	.	.	16E/	.	16E\	.
.	.	.	.	.	.	.	.	.	.	.	.	.	.	.	.	16F#/	.	16F#\	.
.	.	.	.	.	.	.	.	.	.	.	.	.	.	.	.	16G/JJ	.	16G\JJ	.
.	.	.	.	.	.	.	.	.	.	.	.	.	.	.	.	16A/LL	.	16A\LL	.
.	.	.	.	.	.	.	.	.	.	.	.	.	.	.	.	16B/	.	16B\	.
.	.	.	.	.	.	.	.	.	.	.	.	.	.	.	.	16cn/	.	16cn\	.
.	.	.	.	.	.	.	.	.	.	.	.	.	.	.	.	16B/	.	16B\	.
.	.	.	.	.	.	.	.	.	.	.	.	.	.	.	.	16A/	.	16A\	.
.	.	.	.	.	.	.	.	.	.	.	.	.	.	.	.	16G/JJ	.	16G\JJ	.
=121	=121	=121	=121	=121	=121	=121	=121	=121	=121	=121	=121	=121	=121	=121	=121	=121	=121	=121	=121
8ccc\L]	8aa\L]	.	8ff#\L]	8a\L]	.	8c\L]	8A\L]	.	8g/L]	8G/L]	.	8cc/L]	.	8a/L]	.	8F#/L)	.	8F#\L)	.
8dd'\	8cc\	pp	8a'\	8d\	p	8D'\	8C\	p	8g/	8G'/	p	8d'/	p	8c'/	p	8A'/	p	8F#'\	p
8dd'\J	8cc\J	.	8a'\J	8d\J	.	8D'\J	8C\J	.	8g/J	8G'/J	.	8d'/J	.	8c'/J	.	8A'/J	.	8F#'\J	.
8dd'\	8cc\	.	8a/	8d'/	.	8D/	8C'/	.	8g/	8G'/	.	8d'/	.	8c'/	.	8A'/	.	8F#'\	.
8r	8r	.	8r	8r	.	8r	8r	.	8r	8r	.	8r	.	8r	.	8r	.	8r	.
8r	8r	.	8r	8r	.	8r	8r	.	8r	8r	.	8r	.	8r	.	8r	.	8r	.
=122	=122	=122	=122	=122	=122	=122	=122	=122	=122	=122	=122	=122	=122	=122	=122	=122	=122	=122	=122
2.r	2.r	.	2.r	2.r	.	2.r	2.r	.	2.r	2.r	.	(16eee\LL	pp	8cc'\L	pp	8a'\L	pp	8f#'\L	pp
.	.	.	.	.	.	.	.	.	.	.	.	16ddd\	.	.	.	.	.	.	.
.	.	.	.	.	.	.	.	.	.	.	.	16ccc#\	.	8cc'\	.	8a'\	.	8f#'\	.
.	.	.	.	.	.	.	.	.	.	.	.	16ddd\	.	.	.	.	.	.	.
.	.	.	.	.	.	.	.	.	.	.	.	16ccc#\	.	8cc'\J	.	8a'\J	.	8f#'\J	.
.	.	.	.	.	.	.	.	.	.	.	.	16ddd\JJ	.	.	.	.	.	.	.
.	.	.	.	.	.	.	.	.	.	.	.	16eee\LL	.	8cc\	.	8a\	.	8f#\	.
.	.	.	.	.	.	.	.	.	.	.	.	16ddd\JJ)	.	.	.	.	.	.	.
.	.	.	.	.	.	.	.	.	.	.	.	8r	.	8r	.	8r	.	8r	.
.	.	.	.	.	.	.	.	.	.	.	.	8r	.	8r	.	8r	.	8r	.
=123	=123	=123	=123	=123	=123	=123	=123	=123	=123	=123	=123	=123	=123	=123	=123	=123	=123	=123	=123
4r	2.r	.	2.r	2.r	.	4r	2.r	.	[2.ccz/	[2.c/	zp	4r	.	4r	.	4r	.	[2.Gz\	zp
8r	.	.	.	.	.	8r	.	.	.	.	.	8r	.	8r	.	8r	.	.	.
(8bb/L	.	p	.	.	.	(8B/L	.	p	.	.	.	(8b\L	p	[4.g/	p	(8d/L	p	.	.
8gg/	.	.	.	.	.	8G/	.	.	.	.	.	8g\	.	.	.	8B/	.	.	.
8ccc/J	.	.	.	.	.	8c/J	.	.	.	.	.	8cc\J	.	.	.	8e/J	.	.	.
=124	=124	=124	=124	=124	=124	=124	=124	=124	=124	=124	=124	=124	=124	=124	=124	=124	=124	=124	=124
8aa/	2.r	.	2.r	2.r	.	8A/	2.r	.	2.cc/_	2.c/_	.	8a/	.	(8g/L]	.	8c/L	.	2.G\_	.
4ddd/)	.	.	.	.	.	4d/)	.	.	.	.	.	4dd\)	.	8f#/	.	8A/	.	.	.
.	.	.	.	.	.	.	.	.	.	.	.	.	.	8a/J)	.	8F#/J)	.	.	.
(8bb/L	.	.	.	.	.	(8B/L	.	.	.	.	.	(8b\L	.	[4.g/	.	(8d/L	.	.	.
8gg/	.	.	.	.	.	8G/	.	.	.	.	.	8g\	.	.	.	8B/	.	.	.
8ccc/J	.	.	.	.	.	8c/J	.	.	.	.	.	8cc\J	.	.	.	8e/J	.	.	.
=125	=125	=125	=125	=125	=125	=125	=125	=125	=125	=125	=125	=125	=125	=125	=125	=125	=125	=125	=125
8aa/	2.r	.	2.r	2.r	.	8A/	2.r	.	4.cc/_	4.c/_	.	8a/	.	(8g/L]	.	8c/L	.	4.G\_	.
4ddd/)	.	.	.	.	.	4d/)	.	.	.	.	.	4dd\)	.	8f#/	.	8A/	.	.	.
.	.	.	.	.	.	.	.	.	.	.	.	.	.	8a/J)	.	8F#/J)	.	.	.
8bb'/L	.	.	.	.	.	8B'/L	.	.	8cc/]	8c/]	.	8b'\L	.	(8g'/L	.	8G'/L	.	8G\L]	.
8ccc'/	.	.	.	.	.	8c'/	.	.	8r	8r	.	8cc'\	.	8g'/	.	8G'/	.	8A'\	.
8ddd'/J	.	.	.	.	.	8d'/J	.	.	8r	8r	.	8dd'\J	.	8g'/J)	.	8G'/J	.	8B'\J	.
=126	=126	=126	=126	=126	=126	=126	=126	=126	=126	=126	=126	=126	=126	=126	=126	=126	=126	=126	=126
(8.eee/L	4r	.	4r	4ryy	.	(8.e/L	2.r	.	2.r	2.r	.	(8.ee\L	.	8g/	.	8G/	.	8c\	.
.	.	.	.	.	.	.	.	.	.	.	.	.	.	8r	.	8r	.	8r	.
16fff#/k	.	.	.	.	.	16f#/k	.	.	.	.	.	16ff#\k	.	.	.	.	.	.	.
8ggg/J)	8r	.	8r	8ryy	.	8g/J)	.	.	.	.	.	8gg\J)	.	8r	.	8r	.	8r	.
(8ddd'/L	(8ff#\L	.	(8dd'/L	(8f#/L	.	(8d'/L	.	.	.	.	.	(8d'/L	.	4r	.	(8F#/L	.	(8D\L	.
8ddd'/	8gg\	.	8dd'/	8g/	.	8d'/	.	.	.	.	.	8d'/	.	.	.	8G/	.	8E\	.
8ddd'/J)	8aa\J)	.	8dd'/J)	8a/J)	.	8d'/J)	.	.	.	.	.	8d'/J)	.	8A/	.	8A/J)	.	8F#\J)	.
=127	=127	=127	=127	=127	=127	=127	=127	=127	=127	=127	=127	=127	=127	=127	=127	=127	=127	=127	=127
(4ccc\	4aa\	.	4cc/	(4a/	.	(4c/	2.r	.	[2.cc/	[2.c/	.	(4c/	.	(4A/	.	4.D/	.	2.G\	.
8bb\)	8gg\	.	8b/	8g/)	.	8B/)	.	.	.	.	.	8B/)	.	8G/)	.	.	.	.	.
(8bb/L	4r	.	[4.gg/	4r	.	(4fn/	.	.	.	.	.	(8b\L	.	(8B/L	.	[4.g\	.	.	.
8gg/	.	.	.	.	.	.	.	.	.	.	.	8g\	.	8G/	.	.	.	.	.
8ccc/J	8r	.	.	8r	.	8e/	.	.	.	.	.	8cc\J	.	8c/J	.	.	.	.	.
=128	=128	=128	=128	=128	=128	=128	=128	=128	=128	=128	=128	=128	=128	=128	=128	=128	=128	=128	=128
8aa/	2.r	.	8gg/L]	2.r	.	8e-/L	2.r	.	2.cc/_	2.c/_	.	8a/	.	8A/	.	8g\L]	.	[2.GG/	.
4ddd/)	.	.	(8.ff#t/	.	.	16d/L	.	.	.	.	.	4dd\)	.	4d/)	.	(8.f#t\	.	.	.
.	.	.	.	.	.	16B/	.	.	.	.	.	.	.	.	.	.	.	.	.
.	.	.	.	.	.	16c/	.	.	.	.	.	.	.	.	.	.	.	.	.
.	.	.	32ee/LL	.	.	16A/JJ	.	.	.	.	.	.	.	.	.	32e\LL	.	.	.
.	.	.	32ff#/JJJ	.	.	.	.	.	.	.	.	.	.	.	.	32f#\JJJ	.	.	.
(8bb/L	.	.	[4.gg/)	.	.	8G/L)	.	.	.	.	.	(8b\L	.	(8B/L	.	[4.g\)	.	.	.
8gg/	.	.	.	.	.	(8fn/	.	.	.	.	.	8g\	.	8G/	.	.	.	.	.
8ccc/J	.	.	.	.	.	8en/J	.	.	.	.	.	8cc\J	.	8c/J	.	.	.	.	.
=129	=129	=129	=129	=129	=129	=129	=129	=129	=129	=129	=129	=129	=129	=129	=129	=129	=129	=129	=129
8aa/	2.r	.	8gg/L]	2.r	.	8e-/L	2.r	.	4.cc/_	4.c/_	.	8a/	.	8A/	.	8g\L]	.	4.GG/_	.
4ddd/)	.	.	(8.ff#t/	.	.	16d/L	.	.	.	.	.	4dd\)	.	4d/)	.	(8.f#t\	.	.	.
.	.	.	.	.	.	16B/	.	.	.	.	.	.	.	.	.	.	.	.	.
.	.	.	.	.	.	16c/	.	.	.	.	.	.	.	.	.	.	.	.	.
.	.	.	32ee/LL	.	.	16A/JJ	.	.	.	.	.	.	.	.	.	32e\LL	.	.	.
.	.	.	32ff#/JJJ	.	.	.	.	.	.	.	.	.	.	.	.	32f#\JJJ	.	.	.
8bb'/L	.	.	8gg/L)	.	.	8G/)	.	.	8cc/L]	8c/L]	.	8b'\L	.	8B'/L	.	8g\L)	.	8GG/L]	.
8ccc'/	.	.	8gg/	.	.	8r	.	.	8cc/	8c/	.	8cc'\	.	8c'/	.	8G\	.	8AA'/	.
8ddd'/J	.	.	8gg/J	.	.	8r	.	.	8cc/J	8c/J	.	8dd'\J	.	8d'/J	.	8G\J	.	8BB'/J	.
=130	=130	=130	=130	=130	=130	=130	=130	=130	=130	=130	=130	=130	=130	=130	=130	=130	=130	=130	=130
(8.eee/L	4r	.	8gg/	4r	.	4r	2.r	.	8cc/	8c/	.	(8.ee\L	.	(8.e/L	.	8G/	.	8C/	.
.	.	.	8r	.	.	.	.	.	8r	8r	.	.	.	.	.	8r	.	8r	.
16fff#/k	.	.	.	.	.	.	.	.	.	.	.	16ff#\k	.	16f#/k	.	.	.	.	.
8ggg/J)	8r	.	8r	8r	.	8r	.	.	8r	8r	.	8gg\J)	.	8g/J)	.	8r	.	8r	.
(8bb'\L	8gg#\L	.	(8ee'\L	8dd\L	.	(8en'/L	.	.	4r	4r	.	4r	.	4r	.	4r	.	4r	.
8bb'\	8gg#\	.	8ee'\	8dd\	.	8e'/	.	.	.	.	.	.	.	.	.	.	.	.	.
8bb'\J)	8gg#\J	.	8ee'\J)	8dd\J	.	8e'/J)	.	.	8r	8r	.	8r	.	8r	.	8r	.	8r	.
=131	=131	=131	=131	=131	=131	=131	=131	=131	=131	=131	=131	=131	=131	=131	=131	=131	=131	=131	=131
(8.ccc\L	8.aa\L	.	8ee\	8cc\	.	8A/	2.r	.	4r	4r	.	2.r	.	2.r	.	2.r	.	2.r	.
.	.	.	8r	8ryy	.	8r	.	.	.	.	.	.	.	.	.	.	.	.	.
16ddd\k	16bb\k	.	.	.	.	.	.	.	.	.	.	.	.	.	.	.	.	.	.
8eee\J)	8ccc\J	.	8r	8ryy	.	8r	.	.	8r	8r	.	.	.	.	.	.	.	.	.
(8aa'\L	8ff#\L	.	(8dd'\L	8cc\L	.	(8d'/L	.	.	(8dd'\L	8g\L	.	.	.	.	.	.	.	.	.
8aa'\	8ff#\	.	8dd'\	8cc\	.	8d'/	.	.	8dd'\	8g\	.	.	.	.	.	.	.	.	.
8aa'\J)	8ff#\J	.	8dd'\J)	8cc\J	.	8d'/J)	.	.	8dd'\J)	8g\J	.	.	.	.	.	.	.	.	.
=132	=132	=132	=132	=132	=132	=132	=132	=132	=132	=132	=132	=132	=132	=132	=132	=132	=132	=132	=132
(16bb\LL	16ggn\LL	.	8dd\	8b\	.	8G/	2.r	.	4ee\	4cc\	.	(4dd\	.	(4b/	.	(4d\	.	4G\	.
16ccc\	16aa\	.	.	.	.	.	.	.	.	.	.	.	.	.	.	.	.	.	.
16ddd\	16bb\	.	8r	8r	.	8r	.	.	.	.	.	.	.	.	.	.	.	.	.
16bb\	16gg\	.	.	.	.	.	.	.	.	.	.	.	.	.	.	.	.	.	.
16ccc\	16ee\	.	8r	8r	.	8r	.	.	8ff\	8dd\	.	8cc\	.	8a/	.	8e\	.	8C/	.
16aa\JJ	16cc\JJ	.	.	.	.	.	.	.	.	.	.	.	.	.	.	.	.	.	.
8gg\)	8b\	.	(16gg\LL	16b\LL	.	4r	.	.	4ee\	4cc\	.	16b\LL	.	16g/LL	.	4d\)	.	4D\	.
.	.	.	16aa\	16cc\	.	.	.	.	.	.	.	16cc\	.	16a/	.	.	.	.	.
8r	8r	.	16bb\	16dd\	.	.	.	.	.	.	.	16dd\	.	16b/	.	.	.	.	.
.	.	.	16gg\	16b\	.	.	.	.	.	.	.	16b\	.	16g/	.	.	.	.	.
8r	8r	.	16aa\	16cc\	.	8r	.	.	8dd\	8g\	.	16cc\	.	16a/	.	8d\ 8c\	.	8D\	.
.	.	.	16ff#\JJ	16a\JJ	.	.	.	.	.	.	.	16a\JJ)	.	16f#/JJ)	.	.	.	.	.
=133	=133	=133	=133	=133	=133	=133	=133	=133	=133	=133	=133	=133	=133	=133	=133	=133	=133	=133	=133
8r	2.r	.	8gg\)	8b\	.	8r	2.r	.	8cc/	8e/	.	8g/	.	8g/	.	8d\ 8B\	.	8GG/	.
(8dd/L	.	.	(8d/L	8r	.	(8D/L	.	.	8r	8r	.	8r	.	8r	.	8r	.	8r	.
8gg/J	.	.	8g/J	8r	.	8G/J	.	.	8r	8r	.	8r	.	8r	.	8r	.	8r	.
8ff#/L	.	.	8f#/L	4r	.	8F#/L	.	.	4r	4r	.	4r	.	4r	.	4r	.	4r	.
8ccc/	.	.	8cc/	.	.	8c/	.	.	.	.	.	.	.	.	.	.	.	.	.
8bb/J	.	.	8b/J	8r	.	8B/J	.	.	8r	8r	.	8r	.	8r	.	8r	.	8r	.
=134	=134	=134	=134	=134	=134	=134	=134	=134	=134	=134	=134	=134	=134	=134	=134	=134	=134	=134	=134
8eee/L	2.r	.	8ee/L	2.r	.	8e/L	2.r	.	2.r	2.r	.	4r	.	4r	.	4r	.	4r	.
8ddd/J)	.	.	8dd/J)	.	.	8d/J)	.	.	.	.	.	.	.	.	.	.	.	.	.
8r	.	.	8r	.	.	8r	.	.	.	.	.	8b\	.	8g/	.	8e'\	.	8e'\	.
4r	.	.	4r	.	.	4r	.	.	.	.	.	(8b\L	.	(8g/L	.	8c'/L	.	8c'\L	.
.	.	.	.	.	.	.	.	.	.	.	.	8cc\)	.	8a/)	.	8A'/	.	8A'\	.
8r	.	.	8r	.	.	8r	.	.	.	.	.	8a'\J	.	8f#'/J	.	8d'/J	.	8d'\J	.
=135	=135	=135	=135	=135	=135	=135	=135	=135	=135	=135	=135	=135	=135	=135	=135	=135	=135	=135	=135
8r	2.r	.	8r	2.r	.	8r	2.r	.	2.r	2.r	.	8g/	.	8g/	.	8G/	.	8G\	.
(8dd/L	.	.	(8d/L	.	.	(8D/L	.	.	.	.	.	8r	.	8r	.	8r	.	8r	.
8gg/J	.	.	8g/J	.	.	8G/J	.	.	.	.	.	8r	.	8r	.	8r	.	8r	.
8ff#/L	.	.	8f#/L	.	.	8F#/L	.	.	.	.	.	4r	.	4r	.	4r	.	4r	.
8ccc/	.	.	8cc/	.	.	8c/	.	.	.	.	.	.	.	.	.	.	.	.	.
8bb-/J	.	.	8b-/J	.	.	8B-/J	.	.	.	.	.	8r	.	8r	.	8r	.	8r	.
=136	=136	=136	=136	=136	=136	=136	=136	=136	=136	=136	=136	=136	=136	=136	=136	=136	=136	=136	=136
8eee-/L	2.r	.	8ee-/L	2.r	.	8e-/L	2.r	.	2.r	2.r	.	4r	.	4r	.	4r	.	4r	.
8ddd/J)	.	.	8dd/J)	.	.	8d/J)	.	.	.	.	.	.	.	.	.	.	.	.	.
8r	.	.	8r	.	.	8r	.	.	.	.	.	8b-\	.	8g/	.	8e-'\	.	8e-'\	.
4r	.	.	4r	.	.	4r	.	.	.	.	.	(8b-\L	.	(8g/L	.	8c'/L	.	8c'\L	.
.	.	.	.	.	.	.	.	.	.	.	.	8cc\)	.	8a/)	.	8A'/	.	8A'\	.
8r	.	.	8r	.	.	8r	.	.	.	.	.	8a'\J	.	8f#'/J	.	8d'/J	.	8d'\J	.
=137	=137	=137	=137	=137	=137	=137	=137	=137	=137	=137	=137	=137	=137	=137	=137	=137	=137	=137	=137
(8eeen\L	8ccc\L	pp	(8een\L	8cc\L	p	(8en\L	8c\L	pp	2.r	2.r	.	4r	.	4r	.	4r	.	4r	.
8ddd\J)	8bb\J	.	8dd\J)	8b\J	.	8d\J)	8B\J	.	.	.	.	.	.	.	.	.	.	.	.
8r	8r	.	8r	8r	.	8r	8r	.	.	.	.	8bn\	.	8g/	.	8en'\	.	8en'\	.
4r	4r	.	4r	4r	.	4r	4r	.	.	.	.	(8b\L	.	(8g/L	.	8c'/L	.	8c'\L	.
.	.	.	.	.	.	.	.	.	.	.	.	8cc\)	.	8a/)	.	8A'/	.	8A'\	.
8r	8r	.	8r	8r	.	8r	8r	.	.	.	.	8a'\J	.	8f#'/J	.	8d'/J	.	8d'\J	.
=138	=138	=138	=138	=138	=138	=138	=138	=138	=138	=138	=138	=138	=138	=138	=138	=138	=138	=138	=138
(8fff#\L	8ccc\L	.	(8ff#\L	8cc\L	.	(8f#\L	8c\L	.	2.r	2.r	.	4r	.	4r	.	4r	.	4r	.
8ggg\J)	8bb\J	.	8gg\J)	8b\J	.	8g\J)	8B\J	.	.	.	.	.	.	.	.	.	.	.	.
8r	8r	.	8r	8r	.	8r	8r	.	.	.	.	8b\	.	8g/	.	8e'\	.	8e'\	.
4r	4r	.	4r	4r	.	4r	4r	.	.	.	.	(8b\L	.	(8g/L	.	8c'/L	.	8c'\L	.
.	.	.	.	.	.	.	.	.	.	.	.	8cc\)	.	8a/)	.	8A'/	.	8A'\	.
8r	8r	.	8r	8r	.	8r	8r	.	.	.	.	8a'\J	.	8f#'/J	.	8d'/J	.	8d'\J	.
=139	=139	=139	=139	=139	=139	=139	=139	=139	=139	=139	=139	=139	=139	=139	=139	=139	=139	=139	=139
2.r	2.r	.	(8aa\	8ff#\	.	(8A\	8F#\	.	2.r	2.r	.	8r	.	8r	.	8r	.	8r	.
.	.	.	[4bb-\)	[4gg\	.	[4B-\)	[4G\	.	.	.	.	8c#/L	.	8c#/L	.	8C#/L	.	8C#/L	.
.	.	.	.	.	.	.	.	.	.	.	.	8c#/J	.	8c#/J	.	8C#/J	.	8C#/J	.
.	.	.	4.bb-\]	4.gg\]	.	4.B-\]	4.G\]	.	.	.	.	8c#/L	.	8c#/L	.	8C#/L	.	8C#/L	.
.	.	.	.	.	.	.	.	.	.	.	.	8c#/	.	8c#/	.	8C#/	.	8C#/	.
.	.	.	.	.	.	.	.	.	.	.	.	8c#/J	.	8c#/J	.	8C#/J	.	8C#/J	.
=140	=140	=140	=140	=140	=140	=140	=140	=140	=140	=140	=140	=140	=140	=140	=140	=140	=140	=140	=140
4r	4r	.	(4.bbn\	4.gg\	.	(4.Bn\	4.G\	.	2.r	2.r	.	(8c#/L	.	(8c#/L	.	(8C#/L	.	(8C#/L	.
.	.	.	.	.	.	.	.	.	.	.	.	8d/)	.	8d/)	.	8D/)	.	8D/)	.
8r	8r	.	.	.	.	.	.	.	.	.	.	8d'/J	.	8d'/J	.	8D'/J	.	8D'/J	.
4.fff#\	4.ccc\	.	4.aa\	4.ff#\	.	4.a\)	4.c\	.	.	.	.	(8d/L	.	(8d/L	.	(8D/L	.	(8D\L	.
.	.	.	.	.	.	.	.	.	.	.	.	8d#/)	.	8d#/)	.	8D#/)	.	8D#\)	.
.	.	.	.	.	.	.	.	.	.	.	.	8d#'/J	.	8d#'/J	.	8D#'/J	.	8D#'\J	.
=141	=141	=141	=141	=141	=141	=141	=141	=141	=141	=141	=141	=141	=141	=141	=141	=141	=141	=141	=141
(4.ggg\	4.bb\	.	[2.gg/	4.gg\	.	(4.g\	4.B\	.	[2.cc/	[2.c/	.	(8d#/L	.	(8d#/L	.	(8D#/L	.	(8D#\L	.
.	.	.	.	.	.	.	.	.	.	.	.	8e/)	.	8e/)	.	8E/)	.	8E\)	.
.	.	.	.	.	.	.	.	.	.	.	.	8e'/J	.	8e'/J	.	8E'/J	.	8E'\J	.
4.ccc#\)	4.bb-\	.	.	4.cc#\	.	4.c#\)	4.B-\	.	.	.	.	(8e/L	.	(8e/L	.	(8E/L	.	(8E\L	.
.	.	.	.	.	.	.	.	.	.	.	.	8e-/)	.	8e-/)	.	8E-/)	.	8E-\)	.
.	.	.	.	.	.	.	.	.	.	.	.	8e-'/J	.	8e-'/J	.	8E-'/J	.	8E-'\J	.
=142	=142	=142	=142	=142	=142	=142	=142	=142	=142	=142	=142	=142	=142	=142	=142	=142	=142	=142	=142
(4.ddd\	4.bbn\	.	4.gg/]	4.dd\	.	(4.d\	4.Bn\	.	4.cc/]	4.c/]	.	(8e-/L	.	(8e-/L	.	(8E-/L	.	(8E-\L	.
.	.	.	.	.	.	.	.	.	.	.	.	8dn/)	.	8dn/)	.	8Dn/)	.	8Dn\)	.
.	.	.	.	.	.	.	.	.	.	.	.	8d'/J	.	8d'/J	.	8D'/J	.	8D'\J	.
4.ff#\)	[4.dd\	.	4.ccn\)	4.a\	.	4.F#\)	4.C\	.	[4.g/	[4.G/	.	8r	.	8d/	.	8D/	.	8D\	.
.	.	.	.	.	.	.	.	.	.	.	.	8dd\L	.	8r	.	8r	.	8r	.
.	.	.	.	.	.	.	.	.	.	.	.	8dd\J	.	8r	.	8r	.	8r	.
=143	=143	=143	=143	=143	=143	=143	=143	=143	=143	=143	=143	=143	=143	=143	=143	=143	=143	=143	=143
4gg\	4dd\]	.	4b/	4g/	.	4.G\	4.BB\	.	2.g/_	2.G/_	.	8r	.	(16B/LL	.	(4.g\	.	(4.G\	.
.	.	.	.	.	.	.	.	.	.	.	.	.	.	16d/	.	.	.	.	.
.	.	.	.	.	.	.	.	.	.	.	.	8dd\L	.	16g/	.	.	.	.	.
.	.	.	.	.	.	.	.	.	.	.	.	.	.	16d/	.	.	.	.	.
8r	8r	.	8r	8r	.	.	.	.	.	.	.	8dd\J	.	16B/	.	.	.	.	.
.	.	.	.	.	.	.	.	.	.	.	.	.	.	16d/JJ)	.	.	.	.	.
4r	4r	.	4r	4r	.	4.c\	4.A\	.	.	.	.	8r	.	(16c/LL	.	4.f#\)	.	4.F#\)	.
.	.	.	.	.	.	.	.	.	.	.	.	.	.	16d/	.	.	.	.	.
.	.	.	.	.	.	.	.	.	.	.	.	(16ee\LL	.	16a/	.	.	.	.	.
.	.	.	.	.	.	.	.	.	.	.	.	16dd\	.	16d/	.	.	.	.	.
8r	8r	.	8r	8r	.	.	.	.	.	.	.	16cc\	.	16c/	.	.	.	.	.
.	.	.	.	.	.	.	.	.	.	.	.	16a\JJ)	.	16d/JJ)	.	.	.	.	.
=144	=144	=144	=144	=144	=144	=144	=144	=144	=144	=144	=144	=144	=144	=144	=144	=144	=144	=144	=144
4r	4ryy	.	(4.b/	4.g/	.	(4.B\	4.G\	.	2.g/_	2.G/_	.	(16g\LL	.	(16B/LL	.	(4.g\	.	(4.G\	.
.	.	.	.	.	.	.	.	.	.	.	.	16b\	.	16d/	.	.	.	.	.
.	.	.	.	.	.	.	.	.	.	.	.	16dd\	.	16g/	.	.	.	.	.
.	.	.	.	.	.	.	.	.	.	.	.	16gg\J	.	16d/	.	.	.	.	.
8r	8ryy	.	.	.	.	.	.	.	.	.	.	8dd\J)	.	16B/	.	.	.	.	.
.	.	.	.	.	.	.	.	.	.	.	.	.	.	16d/JJ)	.	.	.	.	.
8r	(4.ccc\	.	4.cc\)	4.a\	.	4.c\)	4.A\	.	.	.	.	8r	.	(16c/LL	.	4.f#\)	.	4.F#\)	.
.	.	.	.	.	.	.	.	.	.	.	.	.	.	16d/	.	.	.	.	.
8ddd/L	.	.	.	.	.	.	.	.	.	.	.	8dd\L	.	16a/	.	.	.	.	.
.	.	.	.	.	.	.	.	.	.	.	.	.	.	16d/	.	.	.	.	.
8ddd/J	.	.	.	.	.	.	.	.	.	.	.	8dd\J	.	16c/	.	.	.	.	.
.	.	.	.	.	.	.	.	.	.	.	.	.	.	16d/JJ)	.	.	.	.	.
=145	=145	=145	=145	=145	=145	=145	=145	=145	=145	=145	=145	=145	=145	=145	=145	=145	=145	=145	=145
8r	4.bb\	.	(4.b/	4.g/	.	(4.B\	4.G\	.	2.g/_	(2.G/]	.	8r	.	(16B/LL	.	(4.g\	.	(4.G\	.
.	.	.	.	.	.	.	.	.	.	.	.	.	.	16d/	.	.	.	.	.
8ddd/L	.	.	.	.	.	.	.	.	.	.	.	8dd\L	.	16g/	.	.	.	.	.
.	.	.	.	.	.	.	.	.	.	.	.	.	.	16d/	.	.	.	.	.
8ddd/J	.	.	.	.	.	.	.	.	.	.	.	8dd\J	.	16B/	.	.	.	.	.
.	.	.	.	.	.	.	.	.	.	.	.	.	.	16d/JJ)	.	.	.	.	.
8r	4.ff#\	.	4.cc\)	4.a\	.	4.A\)	4.F#\	.	.	.	.	8r	.	(16c/LL	.	4.f#\)	.	4.F#\)	.
.	.	.	.	.	.	.	.	.	.	.	.	.	.	16d/	.	.	.	.	.
(16eee/LL	.	.	.	.	.	.	.	.	.	.	.	(16ee\LL	.	16f#/	.	.	.	.	.
16ddd/	.	.	.	.	.	.	.	.	.	.	.	16dd\	.	16d/	.	.	.	.	.
16ccc/	.	.	.	.	.	.	.	.	.	.	.	16cc\	.	16c/	.	.	.	.	.
16aa/JJ	.	.	.	.	.	.	.	.	.	.	.	16a\JJ)	.	16d/JJ)	.	.	.	.	.
=146	=146	=146	=146	=146	=146	=146	=146	=146	=146	=146	=146	=146	=146	=146	=146	=146	=146	=146	=146
8gg/)	8gg\)	.	8b/	8g/	.	8G/	8G\	.	8g/]	8c/)	.	8g/	.	8B/	.	8G/	.	8GG/	.
8r	8r	.	8r	8r	.	8r	8ryy	.	8r	8r	.	8r	.	8r	.	8r	.	8r	.
8r	8r	.	8r	8r	.	8r	8ryy	.	8r	8r	.	8ccc\	.	8r	.	8r	.	8r	.
4r	4r	.	4r	4r	.	4r	4ryy	.	4r	4r	.	8bb'\L	.	4r	.	4r	.	4r	.
.	.	.	.	.	.	.	.	.	.	.	.	8ccc'\	.	.	.	.	.	.	.
!	!	!	!	!	!	!	!	!	!	!	!	!	!	!	!	!	!	! Vcl.	!
8r	8r	.	8r	8r	.	8r	8ryy	.	8r	8r	.	8ddd'\J	.	8ff#'\	.	8cc'\	.	8d'/	.
=147	=147	=147	=147	=147	=147	=147	=147	=147	=147	=147	=147	=147	=147	=147	=147	=147	=147	=147	=147
*	*	*	*	*	*	*	*	*	*	*	*	*	*	*	*	*	*	*^	*
4r	4ryy	.	4r	4ryy	.	4r	4ryy	.	4r	4r	.	8gg\	.	8gg'\	.	8b'\	.	8g'/	2.r	.
.	.	.	.	.	.	.	.	.	.	.	.	8r	.	8r	.	8r	.	8r	.	.
8ccc'/	8r	.	8cc'/	8r	.	8c'/	8r	.	8r	8r	.	8r	.	8r	.	8r	.	8r	.	.
8bb'/L	4r	.	8b'/L	4r	.	8B'/L	4r	.	4r	4r	.	4r	.	4r	.	4r	.	4r	.	.
8ccc'/	.	.	8cc'/	.	.	8c'/	.	.	.	.	.	.	.	.	.	.	.	.	.	.
8ddd'/J	8ff#\	.	8dd'/J	8cc\	.	8d'/J	8D\	.	8dd\	8g\	.	8r	.	8r	.	8r	.	8r	.	.
=148	=148	=148	=148	=148	=148	=148	=148	=148	=148	=148	=148	=148	=148	=148	=148	=148	=148	=148	=148	=148
*	*	*	*	*	*	*	*	*	*	*	*	*	*	*	*	*	*	*v	*v	*
8gg/	8gg\	.	8g/	8b\	.	8G/	8GG/	.	8cc/	8e/	.	4r	.	4r	.	4r	.	4r	.
8r	8ryy	.	8r	8ryy	.	8r	8r	.	8r	8r	.	.	.	.	.	.	.	.	.
!	!	!	!	!	!	!	!	!	!	!	!	!	!	!	!	!	!	! Bassi	!
8r	8ryy	.	8r	8ryy	.	8r	8r	.	8r	8r	.	8c'/	pp	8c'/	pp	8c'\	pp	8C'/	pp
8ggg\	8bb\	pppp	8dd\	8b\	pp	8d\	8B\	pppp	8cc/	8c/	pp	8B'/L	.	8B'/L	.	8B'\L	.	8BB'/L	.
8r	8ryy	.	8r	8ryy	.	8r	8r	.	8r	8r	.	8c'/	.	8c'/	.	8c'\	.	8C'/	.
8r	8ryy	.	8r	8ryy	.	8r	8r	.	8r	8r	.	8d'/J	.	8d'/J	.	8d'\J	.	8D'/J	.
=149	=149	=149	=149	=149	=149	=149	=149	=149	=149	=149	=149	=149	=149	=149	=149	=149	=149	=149	=149
8ggg\	8bb\	.	8dd\	8b\	.	8d\	8B\	.	8cc/	8c/	.	8G/	.	8G/	.	8G/	.	8GG/	.
8r	8r	.	8r	8r	.	8r	8r	.	8r	8r	.	8r	.	8r	.	8r	.	8r	.
8r	8r	.	8r	8r	.	8r	8r	.	8r	8r	.	8r	.	8r	.	8r	.	8r	.
4r	4r	.	4r	4r	.	4r	4r	.	4r	4r	.	4r	.	4r	.	4r	.	4r	.
8r	8r	.	8r	8r	.	8r	8r	.	8r	8r	.	8r	.	8r	.	8r	.	8r	.
==|!	==|!	==|!	==|!	==|!	==|!	==|!	==|!	==|!	==|!	==|!	==|!	==|!	==|!	==|!	==|!	==|!	==|!	==|!	==|!
*-	*-	*-	*-	*-	*-	*-	*-	*-	*-	*-	*-	*-	*-	*-	*-	*-	*-	*-	*-
!!!RWG: Appoggiaturas of spine 'Flauto 1, 2' need manual editing in measures: 94, 94, 103, 110, 110
!!!RWG: Appoggiaturas of spine 'Fagotto 1, 2' need manual editing in measures: 94, 94, 103, 110, 110
!!!RWG: Appoggiaturas of spine 'Corno 1, 2' need manual editing in measures: 94, 94
!!!RWG: Appoggiaturas of spine 'Violino I' need manual editing in measures: 17, 22, 22, 94, 103, 110, 110
!!!RWG: Appoggiaturas of spine 'Violino II' need manual editing in measures: 17, 23, 94, 103
!!!RWG: Key is interpreted using the Humdrum key tool.
!!!OPT: Prague
!!!AFT: stage2
!!!END: 1996/09/27
!!format changes:
!!content changes:
!!public access: complete
!!!KEY: 3399811846
!!!EMD: Converted from MuseData to Humdrum Dec 16, 2000, by Andreas Kornstaedt using muse2kern.
